/* XPM */
static char *door[] = {
/* columns rows colors chars-per-pixel */
"64 64 13 1 ",
"  c #37446E",
". c #8BABBF",
"X c #9D8C97",
"o c #C04E46",
"O c #617897",
"+ c #9C3559",
"@ c #D22F1E",
"# c #76809A",
"$ c #B7323B",
"% c #ACC7D0",
"& c #CF8980",
"* c #1C2237",
"= c #465660",
/* pixels */
"    ........................................................    ",
"    ........................................................    ",
"    ........................................................    ",
"    ........................................................    ",
"    ........................................................    ",
"    ........................................................    ",
"    ........................................................    ",
"    ........................................................    ",
"    ........................................................    ",
"    ........................................................    ",
"    ........................................................    ",
"    ........................................................    ",
"    ........................................................    ",
"    ........................................................    ",
"    ........................................................    ",
"    ........................................................    ",
"    XXXXooooXXXXooooXXXXooooXXXXooooXXXXooooXXXXooooXXXXoooo    ",
"    XXXXooooXXXXooooXXXXooooXXXXooooXXXXooooXXXXooooXXXXoooo    ",
"    XXXXooooXXXXooooXXXXooooXXXXooooXXXXooooXXXXooooXXXXoooo    ",
"    XXXXooooXXXXooooXXXXooooXXXXooooXXXXooooXXXXooooXXXXoooo    ",
"    OOOOOOOO++++++++OOOOOOOO++++++++OOOOOOOO++++++++OOOOOOOO    ",
"    OOOOOOOO++++++++OOOOOOOO++++++++OOOOOOOO++++++++OOOOOOOO    ",
"    OOOOOOOO++++++++OOOOOOOO++++++++OOOOOOOO++++++++OOOOOOOO    ",
"    OOOOOOOO++++++++OOOOOOOO++++++++OOOOOOOO++++++++OOOOOOOO    ",
"    ....@@@@@@@@........@@@@@@@@........@@@@@@@@........@@@@    ",
"    ....@@@@@@@@........@@@@@@@@........@@@@@@@@........@@@@    ",
"    ....@@@@@@@@........@@@@@@@@........@@@@@@@@........@@@@    ",
"    ....@@@@@@@@........@@@@@@@@........@@@@@@@@........@@@@    ",
"    @@@@@@@@####....@@@@@@@@####....@@@@@@@@####....@@@@@@@@    ",
"    @@@@@@@@####....@@@@@@@@####....@@@@@@@@####....@@@@@@@@    ",
"    @@@@@@@@####....@@@@@@@@####....@@@@@@@@####....@@@@@@@@    ",
"    @@@@@@@@####....@@@@@@@@####....@@@@@@@@####....@@@@@@@@    ",
"    @@@@........$$$$@@@@........$$$$@@@@........$$$$@@@@....    ",
"    @@@@........$$$$@@@@........$$$$@@@@........$$$$@@@@....    ",
"    @@@@........$$$$@@@@........$$$$@@@@........$$$$@@@@....    ",
"    @@@@........$$$$@@@@........$$$$@@@@........$$$$@@@@....    ",
"    ........@@@@@@@@........@@@@@@@@........@@@@@@@@........    ",
"    ........@@@@@@@@........@@@@@@@@........@@@@@@@@........    ",
"    ........@@@@@@@@........@@@@@@@@........@@@@@@@@........    ",
"    ........@@@@@@@@........@@@@@@@@........@@@@@@@@........    ",
"    %%%%&&&&&&&&%%%%%%%%&&&&&&&&%%%%%%%%&&&&&&&&%%%%%%%%&&&&    ",
"    %%%%&&&&&&&&%%%%%%%%&&&&&&&&%%%%%%%%&&&&&&&&%%%%%%%%&&&&    ",
"    %%%%&&&&&&&&%%%%%%%%&&&&&&&&%%%%%%%%&&&&&&&&%%%%%%%%&&&&    ",
"    %%%%&&&&&&&&%%%%%%%%&&&&&&&&%%%%%%%%&&&&&&&&%%%%%%%%&&&&    ",
"    ooooXXXXooooXXXXooooXXXXooooXXXXooooXXXXooooXXXXooooXXXX    ",
"    ooooXXXXooooXXXXooooXXXXooooXXXXooooXXXXooooXXXXooooXXXX    ",
"    ooooXXXXooooXXXXooooXXXXooooXXXXooooXXXXooooXXXXooooXXXX    ",
"    ooooXXXXooooXXXXooooXXXXooooXXXXooooXXXXooooXXXXooooXXXX    ",
"    ........................................................    ",
"    ........................................................    ",
"    ........................................................    ",
"    ........................................................    ",
"    ........................................................    ",
"    ........................................................    ",
"    ........................................................    ",
"    ........................................................    ",
"    ........................................................    ",
"    ........................................................    ",
"    ........................................................    ",
"    ........................................................    ",
"****========================================================****",
"****========================================================****",
"****========================================================****",
"****========================================================****"
};
