/* XPM */
static char *wall_no[] = {
/* columns rows colors chars-per-pixel */
"64 64 5 1 ",
"  c black",
". c #14182E",
"X c #404973",
"o c #A3A7C2",
"O c #2C354D",
/* pixels */
" ..... ..... XXoOOXXXO.OXOoO. oX ..... ..... XXoOOXXXO.OXOoO. oX",
" XXXXX XXXXX X..OOXo..OOXX..O XX XXXXX XXXXX X..OOXo..OOXX..O XX",
" XXXXX XXXXX ....OX....OX.... .O XXXXX XXXXX ....OX....OX.... .O",
"                                                                ",
" XoooX XoooX ooooOoX.XXXoXoXX XX XoooX XoooX ooooOoX.XXXoXoXX XX",
" oOXOO oOXOO XXX.O........... .. oOXOO oOXOO XXX.O........... ..",
" oXXXO oXXXO XXXXOoXXXoXO.XXo O. oXXXO oXXXO XXXXOoXXXoXO.XXo O.",
" oOXOO oOXOO XXX.OooXo.ooo.O. oo oOXOO oOXOO XXX.OooXo.ooo.O. oo",
" X...X X...X ....OoXXX.XoX.O. XX X...X X...X ....OoXXX.XoX.O. XX",
"                                                                ",
" oXXXXXXXXXO XXXXXXXXXXOoXXXXXXX oXXXXXXXXXO XXXXXXXXXXOoXXXXXXX",
" oXXXXXXXXXO XXXXXXXXXXOoXXXXXXX oXXXXXXXXXO XXXXXXXXXXOoXXXXXXX",
" oXXOOOOOXXO XXOOOOOOXXOoXXooooo oXXOOOOOXXO XXOOOOOOXXOoXXooooo",
" oXXXXXXXXXO XXOXXXXoXXOoXXXXXXX oXXXXXXXXXO XXOXXXXoXXOoXXXXXXX",
" oXXXXXXXXXO XXOXXXXoXXOoXXXXXXX oXXXXXXXXXO XXOXXXXoXXOoXXXXXXX",
" oXXXXXXXXXO XXOXXXXoXXOoXXXXXXX oXXXXXXXXXO XXOXXXXoXXOoXXXXXXX",
" oXXXXXXXXXO XXOXXXXoXXOoXXXXXXX oXXXXXXXXXO XXOXXXXoXXOoXXXXXXX",
" oXXXXXXXXXO XXOXXXXoXXOoXXXXXXX oXXXXXXXXXO XXOXXXXoXXOoXXXXXXX",
" oXXXXXXXXXO XXXXXXXXXXOoXXXXXXX oXXXXXXXXXO XXXXXXXXXXOoXXXXXXX",
" oXXXXXXXXXO XXXXXXXXXXOoXXXXXXX oXXXXXXXXXO XXXXXXXXXXOoXXXXXXX",
" ........... ..........XX....... ........... ..........XX.......",
" ooooooooooo oooooooooooXooooooo ooooooooooo oooooooooooXooooooo",
" oXXXXXXXXXO XooooooooOOoXXXXoXX oXXXXXXXXXO XooooooooOOoXXXXoXX",
" oXXOXXXXXXO XXooooooOOOoXXXXXXX oXXOXXXXXXO XXooooooOOOoXXXXXXX",
" oXXOoXXXXXO XXXoooooOOOoXXooooo oXXOoXXXXXO XXXoooooOOOoXXooooo",
" oXXXXXXXXXO XXXXoooOOOOoXXoXXXX oXXXXXXXXXO XXXXoooOOOOoXXoXXXX",
" oXXXOOOXXXO XXXXXOOOOOOoXXoXXXX oXXXOOOXXXO XXXXXOOOOOOoXXoXXXX",
" oXXXOOOXXXO XXXX..OOOOOoXXoXXXX oXXXOOOXXXO XXXX..OOOOOoXXoXXXX",
" oXOXooXXXXO XXX....OOOOoXXoXXXX oXOXooXXXXO XXX....OOOOoXXoXXXX",
" oXoXXXXOOXO XX......OOOoOXoOOOO oXoXXXXOOXO XX......OOOoOXoOOOO",
" oXXXXXXoXXO X........OOoXXXXXXX oXXXXXXoXXO X........OOoXXXXXXX",
" X.........X ..........Oo....... X.........X ..........Oo.......",
" ..... ..... XXoOOXXXO.OXOoO. oX ..... ..... XXoOOXXXO.OXOoO. oX",
" XXXXX XXXXX X..OOXo..OOXX..O XX XXXXX XXXXX X..OOXo..OOXX..O XX",
" XXXXX XXXXX ....OX....OX.... .O XXXXX XXXXX ....OX....OX.... .O",
"                                                                ",
" XoooX XoooX ooooOoX.XXXoXoXX XX XoooX XoooX ooooOoX.XXXoXoXX XX",
" oOXOO oOXOO XXX.O........... .. oOXOO oOXOO XXX.O........... ..",
" oXXXO oXXXO XXXXOoXXXoXO.XXo O. oXXXO oXXXO XXXXOoXXXoXO.XXo O.",
" oOXOO oOXOO XXX.OooXo.ooo.O. oo oOXOO oOXOO XXX.OooXo.ooo.O. oo",
" X...X X...X ....OoXXX.XoX.O. XX X...X X...X ....OoXXX.XoX.O. XX",
"                                                                ",
" oXXXXXXXXXO XXXXXXXXXXOoXXXXXXX oXXXXXXXXXO XXXXXXXXXXOoXXXXXXX",
" oXXXXXXXXXO XXXXXXXXXXOoXXXXXXX oXXXXXXXXXO XXXXXXXXXXOoXXXXXXX",
" oXXOOOOOXXO XXOOOOOOXXOoXXooooo oXXOOOOOXXO XXOOOOOOXXOoXXooooo",
" oXXXXXXXXXO XXOXXXXoXXOoXXXXXXX oXXXXXXXXXO XXOXXXXoXXOoXXXXXXX",
" oXXXXXXXXXO XXOXXXXoXXOoXXXXXXX oXXXXXXXXXO XXOXXXXoXXOoXXXXXXX",
" oXXXXXXXXXO XXOXXXXoXXOoXXXXXXX oXXXXXXXXXO XXOXXXXoXXOoXXXXXXX",
" oXXXXXXXXXO XXOXXXXoXXOoXXXXXXX oXXXXXXXXXO XXOXXXXoXXOoXXXXXXX",
" oXXXXXXXXXO XXOXXXXoXXOoXXXXXXX oXXXXXXXXXO XXOXXXXoXXOoXXXXXXX",
" oXXXXXXXXXO XXXXXXXXXXOoXXXXXXX oXXXXXXXXXO XXXXXXXXXXOoXXXXXXX",
" oXXXXXXXXXO XXXXXXXXXXOoXXXXXXX oXXXXXXXXXO XXXXXXXXXXOoXXXXXXX",
" ........... ..........XX....... ........... ..........XX.......",
" ooooooooooo oooooooooooXooooooo ooooooooooo oooooooooooXooooooo",
" oXXXXXXXXXO XooooooooOOoXXXXoXX oXXXXXXXXXO XooooooooOOoXXXXoXX",
" oXXOXXXXXXO XXooooooOOOoXXXXXXX oXXOXXXXXXO XXooooooOOOoXXXXXXX",
" oXXOoXXXXXO XXXoooooOOOoXXooooo oXXOoXXXXXO XXXoooooOOOoXXooooo",
" oXXXXXXXXXO XXXXoooOOOOoXXoXXXX oXXXXXXXXXO XXXXoooOOOOoXXoXXXX",
" oXXXOOOXXXO XXXXXOOOOOOoXXoXXXX oXXXOOOXXXO XXXXXOOOOOOoXXoXXXX",
" oXXXOOOXXXO XXXX..OOOOOoXXoXXXX oXXXOOOXXXO XXXX..OOOOOoXXoXXXX",
" oXOXooXXXXO XXX....OOOOoXXoXXXX oXOXooXXXXO XXX....OOOOoXXoXXXX",
" oXoXXXXOOXO XX......OOOoOXoOOOO oXoXXXXOOXO XX......OOOoOXoOOOO",
" oXXXXXXoXXO X........OOoXXXXXXX oXXXXXXoXXO X........OOoXXXXXXX",
" X.........X ..........Oo....... X.........X ..........Oo......."
};
