/* XPM */
static char *wall_so[] = {
/* columns rows colors chars-per-pixel */
"64 64 5 1 ",
"  c black",
". c #686F99",
"X c #692464",
"o c #9C2A70",
"O c #DFE0E8",
/* pixels */
" ..... ..... .XXoo.OXXoo..XXo .. ..... ..... .XXoo.OXXoo..XXo ..",
" ..... ..... XXXXo.XXXXo.XXXX Xo ..... ..... XXXXo.XXXXo.XXXX Xo",
"                                                                ",
" .OOO. .OOO. OOOOoO.X...O.O.. .. .OOO. .OOO. OOOOoO.X...O.O.. ..",
" Oo.oo Oo.oo ...XoXXXXXXXXXXX XX Oo.oo Oo.oo ...XoXXXXXXXXXXX XX",
" O...o O...o ....oO...O.oX..O oX O...o O...o ....oO...O.oX..O oX",
" Oo.oo Oo.oo ...XoOO.OXOOOXoX OO Oo.oo Oo.oo ...XoOO.OXOOOXoX OO",
" .XXX. .XXX. XXXXoO...X.O.XoX .. .XXX. .XXX. XXXXoO...X.O.XoX ..",
"                                                                ",
" O.........o ..........oO....... O.........o ..........oO.......",
" O.........o ..........oO....... O.........o ..........oO.......",
" O..ooooo..o ..oooooo..oO..OOOOO O..ooooo..o ..oooooo..oO..OOOOO",
" O.........o ..o....O..oO....... O.........o ..o....O..oO.......",
" O.........o ..o....O..oO....... O.........o ..o....O..oO.......",
" O.........o ..o....O..oO....... O.........o ..o....O..oO.......",
" O.........o ..o....O..oO....... O.........o ..o....O..oO.......",
" O.........o ..o....O..oO....... O.........o ..o....O..oO.......",
" O.........o ..........oO....... O.........o ..........oO.......",
" O.........o ..........oO....... O.........o ..........oO.......",
" XXXXXXXXXXX XXXXXXXXXX..XXXXXXX XXXXXXXXXXX XXXXXXXXXX..XXXXXXX",
" OOOOOOOOOOO OOOOOOOOOOO.OOOOOOO OOOOOOOOOOO OOOOOOOOOOO.OOOOOOO",
" O.........o .OOOOOOOOooO....O.. O.........o .OOOOOOOOooO....O..",
" O..o......o ..OOOOOOoooO....... O..o......o ..OOOOOOoooO.......",
" O..oO.....o ...OOOOOoooO..OOOOO O..oO.....o ...OOOOOoooO..OOOOO",
" O.........o ....OOOooooO..O.... O.........o ....OOOooooO..O....",
" O...ooo...o .....ooooooO..O.... O...ooo...o .....ooooooO..O....",
" O...ooo...o ....XXoooooO..O.... O...ooo...o ....XXoooooO..O....",
" O.o.OO....o ...XXXXooooO..O.... O.o.OO....o ...XXXXooooO..O....",
" O.O....oo.o ..XXXXXXoooOo.Ooooo O.O....oo.o ..XXXXXXoooOo.Ooooo",
" O......O..o .XXXXXXXXooO....... O......O..o .XXXXXXXXooO.......",
" .XXXXXXXXX. XXXXXXXXXXoOXXXXXXX .XXXXXXXXX. XXXXXXXXXXoOXXXXXXX",
"                                                                ",
" ..... ..... .XXoo.OXXoo..XXo .. ..... ..... .XXoo.OXXoo..XXo ..",
" ..... ..... XXXXo.XXXXo.XXXX Xo ..... ..... XXXXo.XXXXo.XXXX Xo",
"                                                                ",
" .OOO. .OOO. OOOOoO.X...O.O.. .. .OOO. .OOO. OOOOoO.X...O.O.. ..",
" Oo.oo Oo.oo ...XoXXXXXXXXXXX XX Oo.oo Oo.oo ...XoXXXXXXXXXXX XX",
" O...o O...o ....oO...O.oX..O oX O...o O...o ....oO...O.oX..O oX",
" Oo.oo Oo.oo ...XoOO.OXOOOXoX OO Oo.oo Oo.oo ...XoOO.OXOOOXoX OO",
" .XXX. .XXX. XXXXoO...X.O.XoX .. .XXX. .XXX. XXXXoO...X.O.XoX ..",
"                                                                ",
" O.........o ..........oO....... O.........o ..........oO.......",
" O.........o ..........oO....... O.........o ..........oO.......",
" O..ooooo..o ..oooooo..oO..OOOOO O..ooooo..o ..oooooo..oO..OOOOO",
" O.........o ..o....O..oO....... O.........o ..o....O..oO.......",
" O.........o ..o....O..oO....... O.........o ..o....O..oO.......",
" O.........o ..o....O..oO....... O.........o ..o....O..oO.......",
" O.........o ..o....O..oO....... O.........o ..o....O..oO.......",
" O.........o ..o....O..oO....... O.........o ..o....O..oO.......",
" O.........o ..........oO....... O.........o ..........oO.......",
" O.........o ..........oO....... O.........o ..........oO.......",
" XXXXXXXXXXX XXXXXXXXXX..XXXXXXX XXXXXXXXXXX XXXXXXXXXX..XXXXXXX",
" OOOOOOOOOOO OOOOOOOOOOO.OOOOOOO OOOOOOOOOOO OOOOOOOOOOO.OOOOOOO",
" O.........o .OOOOOOOOooO....O.. O.........o .OOOOOOOOooO....O..",
" O..o......o ..OOOOOOoooO....... O..o......o ..OOOOOOoooO.......",
" O..oO.....o ...OOOOOoooO..OOOOO O..oO.....o ...OOOOOoooO..OOOOO",
" O.........o ....OOOooooO..O.... O.........o ....OOOooooO..O....",
" O...ooo...o .....ooooooO..O.... O...ooo...o .....ooooooO..O....",
" O...ooo...o ....XXoooooO..O.... O...ooo...o ....XXoooooO..O....",
" O.o.OO....o ...XXXXooooO..O.... O.o.OO....o ...XXXXooooO..O....",
" O.O....oo.o ..XXXXXXoooOo.Ooooo O.O....oo.o ..XXXXXXoooOo.Ooooo",
" O......O..o .XXXXXXXXooO....... O......O..o .XXXXXXXXooO.......",
" .XXXXXXXXX. XXXXXXXXXXoOXXXXXXX .XXXXXXXXX. XXXXXXXXXXoOXXXXXXX",
"                                                                "
};
