/* XPM */
static char *wall_ea[] = {
/* columns rows colors chars-per-pixel */
"64 64 8 1 ",
"  c black",
". c #566A89",
"X c #8BABBF",
"o c #222A5C",
"O c #38002C",
"+ c #37446E",
"@ c #D22F1E",
"# c #663B93",
/* pixels */
"                                                                ",
" .XXXXXXXXXXXXX  XXXXXXXXXXXXXX  XXXXXXXXXXXXXX  XXXXXXXXXXXXX. ",
" o.XXXXXXXXXXXXOOXXXXXXXXXXXXXXOOXXXXXXXXXXXXXXOOXXXXXXXXXXXX.o ",
" oo............oo..............oo..............oo............oo ",
" ooo+++++++++++oo++++++++++++++oo++++++++++++++oo+++++++++++ooo ",
" ooo+++++++++++oo++++++++++++++oo++++++++++++++oo+++++++++++ooo ",
" ooo+++++++++++OO++++++++++++++OO++++++++++++++OO+++++++++++ooo ",
" OOOooooooooooOOOOooooooooooooOOOOooooooooooooOOOOooooooooooOOO ",
" ooo+++@@@@@@@@OO++++++@@@@@@@@OO++++++@@@@@@@@OO++++++@@@@@### ",
" ooo++@@@@@@@@+oo+++++@@@@@@@@+oo+++++@@@@@@@@+oo+++++@@@@@@##o ",
" ooo+@@@@@@@@++oo++++@@@@@@@@++oo++++@@@@@@@@++oo++++@@@@@@@#oo ",
" ooo@@@@@@@@+++oo+++@@@@@@@@+++oo+++@@@@@@@@+++oo+++@@@@@@@@ooo ",
" oo#@@@@@@@++++oo++@@@@@@@@++++oo++@@@@@@@@++++oo++@@@@@@@@+ooo ",
" o##@@@@@@+++++oo+@@@@@@@@+++++oo+@@@@@@@@+++++oo+@@@@@@@@++ooo ",
" ###@@@@@++++++oo@@@@@@@@++++++oo@@@@@@@@++++++oo@@@@@@@@+++ooo ",
" ###@@@@+++++++o#@@@@@@@+++++++o#@@@@@@@+++++++o#@@@@@@@++++ooo ",
" ###@@@++++++++##@@@@@@++++++++##@@@@@@++++++++##@@@@@@+++++ooo ",
" ###@@++++++++@##@@@@@++++++++@##@@@@@++++++++@##@@@@@++++++oo# ",
" ###@++++++++@@##@@@@++++++++@@##@@@@++++++++@@##@@@@+++++++o## ",
" ###++++++++@@@##@@@++++++++@@@##@@@++++++++@@@##@@@++++++++### ",
" ##o+++++++@@@@##@@++++++++@@@@##@@++++++++@@@@##@@++++++++@### ",
" #oo++++++@@@@@##@++++++++@@@@@##@++++++++@@@@@##@++++++++@@### ",
" ooo+++++@@@@@@##++++++++@@@@@@##++++++++@@@@@@##++++++++@@@### ",
" ooo++++@@@@@@@#o+++++++@@@@@@@#O+++++++@@@@@@@#o+++++++@@@@### ",
" ooo+++@@@@@@@@oo++++++@@@@@@@@OO++++++@@@@@@@@oo++++++@@@@@### ",
" ooo++@@@@@@@@+oo+++++@@@@@@@@+oo+++++@@@@@@@@+oo+++++@@@@@@##o ",
" ooo+@@@@@@@@++oo++++@@@@@@@@++OO++++@@@@@@@@++oo++++@@@@@@@#oo ",
" ooo@@@@@@@@+++oo+++@@@@@@@@+++OO+++@@@@@@@@+++oo+++@@@@@@@@ooo ",
" ooO#######oooooooo########ooooOOoo########oooooooo########oooo ",
" oOOooooooOOOOOOOOooooooooOOOOOOOOooooooooOOOOOOOOooooooooOOOoo ",
" OOOoooooOOOOOOOOooooooooOOOOOO  ooooooooOOOOOOOOooooooooOOOOOo ",
"                                                                ",
"  OOOOOOOOOOOO    OOOOOOOOOOOO    OOOOOOOOOOOO    OOOOOOOOOOOO  ",
"  OOOOOOOOOOOO    OOOOOOOOOOOO    OOOOOOOOOOOO    OOOOOOOOOOOO  ",
" oooooooooooooo  oooooooooooooo  oooooooooooooo  oooooooooooooo ",
" ooooooooooooooOOoooooooooooooo  ooooooooooooooOOoooooooooooooo ",
" ooOOooooooOOooOOooOOooooooOOoo  ooOOooooooOOooOOooOOooooooOOoo ",
" ooOOOooooOOOooOOooOOOooooOOOoo  ooOOOooooOOOooOOooOOOooooOOOoo ",
" oooOOOooOOOoooOOoooOOOooOOOooo  oooOOOooOOOoooOOoooOOOooOOOooo ",
" ooooOOOOOOooooOOooooOOOOOOoooo  ooooOOOOOOooooOOooooOOOOOOoooo ",
" oooooOOOOoooooOOoooooOOOOooooo  oooooOOOOoooooOOoooooOOOOooooo ",
" oooooOOOOoooooOOoooooOOOOooooo  oooooOOOOoooooOOoooooOOOOooooo ",
" ooooOOOOOOooooOOooooOOOOOOoooo  ooooOOOOOOooooOOooooOOOOOOoooo ",
" oooOOOooOOOoooOOoooOOOooOOOooo  oooOOOooOOOoooOOoooOOOooOOOooo ",
" ooOOOooooOOOooOOooOOOooooOOOoo  ooOOOooooOOOooOOooOOOooooOOOoo ",
" ooOOooooooOOooOOooOOooooooOOoo  ooOOooooooOOooOOooOOooooooOOoo ",
" ooooooooooooooOOoooooooooooooo  ooooooooooooooOOoooooooooooooo ",
" oooooooooooooo  oooooooooooooo  oooooooooooooo  oooooooooooooo ",
"                                                                ",
"XX++XXXXXX++XXXXXX++XXXXXX++XXXXXX++XXXXXX++XXXXXX++XXXXXX++XXXX",
"XX++XXXXXX++XXXXXX++XXXXXX++XXXXXX++XXXXXX++XXXXXX++XXXXXX++XXXX",
"                                                                ",
"#  ##  ##  ##  ##  ##  ##  ##  ##  ##  ##  ##  ##  ##  ##  ##  #",
"#OO##OO##OO##OO##OO##OO##OO##OO##OO##OO##OO##OO##OO##OO##OO##OO#",
"@OO@@OO@@OO@@OO@@OO@@OO@@OO@@OO@@OO@@OO@@OO@@OO@@OO@@OO@@OO@@OO@",
"@OO@@OO@@OO@@OO@@OO@@OO@@OO@@OO@@OO@@OO@@OO@@OO@@OO@@OO@@OO@@OO@",
"@OO@@OO@@OO@@OO@@OO@@OO@@OO@@OO@@OO@@OO@@OO@@OO@@OO@@OO@@OO@@OO@",
"@##@@##@@##@@##@@##@@##@@##@@##@@##@@##@@##@@##@@##@@##@@##@@##@",
"@##@@##@@##@@##@@##@@##@@##@@##@@##@@##@@##@@##@@##@@##@@##@@##@",
"#OO##OO##OO##OO##OO##OO##OO##OO##OO##OO##OO##OO##OO##OO##OO##OO#",
"                                                                ",
"O++++++OO++++++OO++++++OO++++++OO++++++OO++++++OO++++++OO++++++O",
"O++++++OO++++++OO++++++OO++++++OO++++++OO++++++OO++++++OO++++++O",
"                                                                "
};
