/* XPM */
static char *wall_we[] = {
/* columns rows colors chars-per-pixel */
"64 64 7 1 ",
"  c #38002C",
". c #663B93",
"X c #222A5C",
"o c #37446E",
"O c #D22F1E",
"+ c black",
"@ c #566A89",
/* pixels */
"                                                                ",
" .....XXX  XXX........XXXXXXXX.  .....XXXXXXXX.......  XXXXXXX. ",
" ....XXXX  XX........XXXXXXXX..  ....XXXXXXXX........  XXXXXX.. ",
" ...XXXXX  X........XXXXXXXX...  ...XXXXXXXX........X  XXXXX... ",
" ..XooXXX  ........XXXXXXXoo...  ..XooXXXXX........XX  XXXoo... ",
" .XXooXXX  .......XXXXXXXXoo...  .XXooXXXX........XXX  XXXoo... ",
" XXX  XXX  ......XXXXXXXX.  ...  XXX  XXX........XXXX  XX.  ... ",
" XXXXXXX.  .....XXXXXXXX.......  XXXXXXX........XXXXX  X....... ",
" XXXXXX..  ....XXXXXXXX........  XXXXXX........XXXXXX  ........ ",
"                                                                ",
"                                                                ",
" XXX.....  .XXXXXXXX........XXX  XXX........XXXXXXXX.  .....XXX ",
" XX......  XoooooooOOOOOOOOoooo  ooOOOOOOOOooooooooO.  ....XXXX ",
" X.......  XooooooOOOOOOOOoooooXXoOOOOOOOOooooooooOO.  ...XXXXX ",
" ........  XoooooOOOOOOOOooooooXXOOOOOOOOooooooooOOO.  ..XXXXXX ",
" .......X  XooooOOOOOOOOoooooooX.OOOOOOOooooooooOOOO.  .XXXXXXX ",
" ......XX  XoooOOOOOOOOoooooooo..OOOOOOooooooooOOOOO.  XXXXXXXX ",
" .....XXX  XooOOOOOOOOooooooooO..OOOOOooooooooOOOOOO.  XXXXXXX. ",
" ....XXXX  XoOOOOOOOOooooooooOO..OOOOooooooooOOOOOOO.  XXXXXX.. ",
" ...XXXXX  XOOOOOOOOooooooooOOO..OOOooooooooOOOOOOOOX  XXXXX... ",
" ..XXXXXX  .OOOOOOOooooooooOOOO..OOooooooooOOOOOOOOoX  XXXX.... ",
" .XXXXXXX  .OOOOOOooooooooOOOOO..OooooooooOOOOOOOOooX  XXX..... ",
" XXXXXXXX  .OOOOOooooooooOOOOOO..ooooooooOOOOOOOOoooX  XX...... ",
" XXXXXXX.  .OOOOooooooooOOOOOOO  oooooooOOOOOOOOooooX  X....... ",
" XXXXXX..  .OOOooooooooOOOOOOOO  ooooooOOOOOOOOoooooX  ........ ",
" XXXXX...  .OOooooooooOOOOOOOOoXXoooooOOOOOOOOooooooX  .......X ",
" XXXoo...  .OooooooooOOOOOOOOoo  ooooOOOOOOOOoooooooX  ...oo.XX ",
" XXXoo...  .ooooooooOOOOOOOOooo  oooOOOOOOOOoooooooo.  ...ooXXX ",
" XX.  ...  XoooooooOOOOOOOOoXXX  XX.OOOOOOOooooooooO.  ...  XXX ",
" X.......  XooooooOOOOOOOOooX      .OOOOOOooooooooOO.  ...XXXXX ",
" ........  XoooooOOOOOOOOoooXX ++ ..OOOOOooooooooOOO.  ..XXXXXX ",
"             XXX........  X   ++++   .  XXXXXXXX...             ",
"             XX........X  X   ++++   .  XXXXXXX....             ",
" .....XXX  XooOOOOOOOOooooooXX@++@..OOooooooooOOOOOO.  XXXXXXX. ",
" ....XXXX  XoOOOOOOOOoooooooX@@  @@.OooooooooOOOOOOO.  XXXXXX.. ",
" ...XXXXX  XOOOOOOOOoooooooo@@@..@@@ooooooooOOOOOOOOX  XXXXX... ",
" ..XooXXX  .OOOOOOOooooooooOOOO..OOooooooooOOOOOOOOoX  XXXoo... ",
" .XXooXXX  .OOOOOOooooooooOOOOO..OooooooooOOOOOOOOooX  XXXoo... ",
" XXX  XXX  .OOOOOooooooooOOOOOO..ooooooooOOOOOOOOoooX  XX.  ... ",
" XXXXXXX.  .OOOOooooooooOOOOOOO.XoooooooOOOOOOOOooooX  X....... ",
" XXXXXX..  .OOOooooooooOOOOOOOOXXooooooOOOOOOOOoooooX  ........ ",
" XXXXX...  .OOooooooooOOOOOOOOoXXoooooOOOOOOOOooooooX  .......X ",
" XXXX....  .OooooooooOOOOOOOOooXXooooOOOOOOOOoooooooX  ......XX ",
" XXX.....  .ooooooooOOOOOOOOoooXXoooOOOOOOOOoooooooo.  .....XXX ",
" XX......  XoooooooOOOOOOOOooooXXooOOOOOOOOooooooooO.  ....XXXX ",
" X.......  XooooooOOOOOOOOoooooXXoOOOOOOOOooooooooOO.  ...XXXXX ",
" ........  XoooooOOOOOOOOooooooXXOOOOOOOOooooooooOOO.  ..XXXXXX ",
" .......X  XooooOOOOOOOOoooooooX.OOOOOOOooooooooOOOO.  .XXXXXXX ",
" ......XX  XoooOOOOOOOOoooooooo..OOOOOOooooooooOOOOO.  XXXXXXXX ",
" .....XXX  XooOOOOOOOOooooooooO..OOOOOooooooooOOOOOO.  XXXXXXX. ",
" ....XXXX  XoOOOOOOOOooooooooOO..OOOOooooooooOOOOOOO.  XXXXXX.. ",
" ...XXXXX  XOOOOOOOOooooooooOOO  OOOooooooooOOOOOOOOX  XXXXX... ",
" ..XXXXXX  ........XXXXXXXX....  ..XXXXXXXX........XX  XXXX.... ",
"                                                                ",
"                                                                ",
" XXXXXXX.  .....XXXXXXXX.......  XXXXXXX........XXXXX  X....... ",
" XXXXXX..  ....XXXXXXXX........  XXXXXX........XXXXXX  ........ ",
" XXXXX...  ...XXXXXXXX........X  XXXXX........XXXXXXX  .......X ",
" XXXoo...  ..XXXXXXXX.....oo.XX  XXXoo.......XXXXXXXX  ...oo.XX ",
" XXXoo...  .XXXXXXXX......ooXXX  XXXoo......XXXXXXXX.  ...ooXXX ",
" XX.  ...  XXXXXXXX.......  XXX  XX.  .....XXXXXXXX..  ...  XXX ",
" X.......  XXXXXXX........XXXXX  X........XXXXXXXX...  ...XXXXX ",
" ........  XXXXXX........XXXXXX  ........XXXXXXXX....  ..XXXXXX ",
"                                                                "
};
