/* XPM */
static char *wall_no_1[] = {
/* columns rows colors chars-per-pixel */
"64 64 185 2 ",
"   c #000000",
".  c #090003",
"X  c #0F030A",
"o  c #000909",
"O  c #15000D",
"+  c #18030D",
"@  c #16040A",
"#  c #010E13",
"$  c #160111",
"%  c #001116",
"&  c #001219",
"*  c #0B1A1C",
"=  c #1F1014",
"-  c #101F1F",
";  c #290315",
":  c #2A0A1A",
">  c #320018",
",  c #38011F",
"<  c #340C18",
"1  c #2F1019",
"2  c #281017",
"3  c #3D111F",
"4  c #0C1E2C",
"5  c #14182E",
"6  c #380120",
"7  c #360A21",
"8  c #380C30",
"9  c #02242B",
"0  c #0F2C2D",
"q  c #102E2F",
"w  c #102728",
"e  c #002D34",
"r  c #002631",
"t  c #0B3237",
"y  c #113B3C",
"u  c #4D012B",
"i  c #4E1027",
"p  c #4E1028",
"a  c #4B1929",
"s  c #451927",
"d  c #55102A",
"f  c #560732",
"g  c #4F1E36",
"h  c #5C1F3C",
"j  c #71023E",
"k  c #631D37",
"l  c #522130",
"z  c #592132",
"x  c #2C354D",
"c  c #382E5A",
"v  c #5D1E40",
"b  c #7E0A40",
"n  c #781B49",
"m  c #751E4A",
"M  c #413158",
"N  c #6C2F41",
"B  c #7E3249",
"V  c #772C43",
"C  c #7A3569",
"Z  c #104A4F",
"A  c #194A4B",
"S  c #174647",
"D  c #004252",
"F  c #0B4957",
"G  c #1E4A52",
"H  c #105156",
"J  c #1C5557",
"K  c #215C5E",
"L  c #004F60",
"P  c #1E5661",
"I  c #1C5F64",
"U  c #1A6D7C",
"Y  c #2F6A6C",
"T  c #327C7E",
"R  c #2C7577",
"E  c #404973",
"W  c #9E0A4F",
"Q  c #821B44",
"!  c #901B4C",
"~  c #8A1A51",
"^  c #941C51",
"/  c #9A1759",
"(  c #83324B",
")  c #982053",
"_  c #902C53",
"`  c #9C275C",
"'  c #893957",
"]  c #903058",
"[  c #862A4A",
"{  c #A3275A",
"}  c #A8335E",
"|  c #A3375D",
" . c #9E1F62",
".. c #903A65",
"X. c #9D3C60",
"o. c #A53C6B",
"O. c #A73966",
"+. c #B33A61",
"@. c #AF146E",
"#. c #C63D6A",
"$. c #CA3D6B",
"%. c #C63E7B",
"&. c #C63676",
"*. c #884458",
"=. c #9D4366",
"-. c #92466B",
";. c #904572",
":. c #A44464",
">. c #A5416B",
",. c #AC4D76",
"<. c #B94474",
"1. c #CB446D",
"2. c #CB447A",
"3. c #D74375",
"4. c #097283",
"5. c #09788C",
"6. c #197988",
"7. c #387E89",
"8. c #35678D",
"9. c #425686",
"0. c #447BA9",
"q. c #D32B85",
"w. c #D22784",
"e. c #905583",
"r. c #905887",
"t. c #96588B",
"y. c #934886",
"u. c #A56597",
"i. c #CA5A84",
"p. c #E55581",
"a. c #0E819E",
"s. c #1A8694",
"d. c #1C8996",
"f. c #1C8D9C",
"g. c #328083",
"h. c #3B898C",
"j. c #208192",
"k. c #20899B",
"l. c #3E8F95",
"z. c #3A9396",
"x. c #098EA4",
"c. c #1D8DA6",
"v. c #1D92A3",
"b. c #1297BA",
"n. c #2393A3",
"m. c #219BA9",
"M. c #359EA4",
"N. c #3C9CA9",
"B. c #3295A5",
"V. c #1FA4B6",
"C. c #32A2AB",
"Z. c #3BA4AC",
"A. c #3BA4B0",
"S. c #448588",
"D. c #439095",
"F. c #43969F",
"G. c #439AA2",
"H. c #5285B3",
"J. c #5489B6",
"K. c #548DBA",
"L. c #5C8DBB",
"P. c #44A1A4",
"I. c #49A8B3",
"U. c #43ADB8",
"Y. c #51BABD",
"T. c #25AEC0",
"R. c #3DBFC6",
"E. c #37B5C9",
"W. c #3DB9CB",
"Q. c #38B6CA",
"!. c #28BDDE",
"~. c #24BBDD",
"^. c #27BFE0",
"/. c #5793C2",
"(. c #45B5C2",
"). c #5ABCC2",
"_. c #3CC1C9",
"`. c #44C7CB",
"'. c #44C9CD",
"]. c #5AC2CC",
"[. c #47C8D1",
"{. c #49CED5",
"}. c #43D0D8",
"|. c #55E0E5",
" X c #A3A7C2",
/* pixels */
"                                                                                                                                ",
"                                                          .                                                                     ",
"        % & & & & & & & & & & & & & & & & & & & & & & & & & $ $ $ $ $ $ $ $ $ $ $ $ $ O $ $ $ $ $ $ $ $ $ $ $ O $ $ $ $ $       ",
"      % c.Q.W.R.W.W.W.W.W.W.W.W.W.(.Q.b.Q.W.W.W.W.W.W.W.W.0.y.%.%.%.%.%.%.%.%.%.%.%.%.2.&.@.%.2.%.%.%.%.%.%.%.%.%.%.%.&. .O     ",
"      & E.6.H Z Z Z Z Z Z Z Z Z Z I U.!.}.Z Z Z Z Z Z Z M.K.t.[ i i i i p p i i i i i i 3.w.<.k p p i i i i i i i i d Q %.$     ",
"      & W.H % o o o o o o o o o o w G.!.'.o o o o o o o g.J.r.z . . . . . . . . . . . . 1.q.=.2 . . . . . . . . . . @ d %.$     ",
"      & W.Z o % y A A A A A A t   - F.!.`.    9 A A A A P.K.r.l   @ 3 a a a a a s ;     1.q.=.=   < i a a a a a 3 @ . p %.$     ",
"      & W.Z o y F.I.N.N.N.Z.A.h.  - F.!.`.    Y A.N.N.N.(.H.e.l   s O.o.o.o.o.o.>.N     1.q.=.=   ' <.o.o.o.o.,.-.3 . p %.$     ",
"      & W.Z o A I.7.G G G P B.Z.  - F.!.`.    S.m.J G G A M ..l   l O.m g g g h ` *.    1.q.=.=   O.O.v g g g ' ,.a . p 2.$     ",
"      & W.Z o A N.G       % U C.  - G.!.`.    S.4.%     . , _ l   l _ ,       O b *.    1.q.=.=   } n $       g O.a . p %.$     ",
"      & W.Z o A N.G       % U C.  - F.!.`.    S.4.%       , _ l   l _ ,       @ b *.    1.q.=.=   } n $       g o.a . i %.$     ",
"      & W.Z o A N.G       % U C.  - F.!.`.    S.4.%       6 _ l   l _ ,       @ b *.    1.q.=.=   } n $       g o.a . i %.$     ",
"      & W.Z o A N.G       # U C.  - F.!.`.    S.5.9 # % & 8 ] l   l _ ,       @ b *.    1.q.=.=   } n O       g o.a . p %.$     ",
"      & W.Z o A N.G       & U C.  - F.!.`.    h.V.6.U U U E ;.g   l _ ,       @ b *.    1.q.=.=   } n $       g o.a . p %.$     ",
"      & W.Z o A N.G       % U C.  - F.!.`.    K M.C.C.C.'./.r.l   l _ ,       @ b *.    1.q.=.=   } n O       g o.a . p %.$     ",
"      & W.Z o A N.G       & U C.  - F.!.`.              T H.r.l   l _ ,       @ b *.    1.q.=.=   } n $       g o.a . p %.$     ",
"      & W.Z o A N.G       % U C.  w F.!.`.    % - - - - h.K.r.l   l _ ,       @ b *.    1.q.=.=   } n O       g o.a . p %.$     ",
"      & W.Z o A N.G       & U C.  - F.!.`.    J D.D.D.D.].L.e.l   l _ ,       @ b *.    1.q.=.=   } n $       g o.a . p %.$     ",
"      & W.Z o A N.G       # U C.  - F.!.`.    S.V.n.j.j.j.9.;.l   l _ 6       @ b *.    1.q.=.=   } n O       g o.a . p %.$     ",
"      & W.Z o A N.G       % U C.  - F.!.`.    S.4.&       , _ l   l _ 6       @ b *.    1.q.=.=   } n $       g o.a . p %.$     ",
"      & W.Z o A N.G       % U C.  - F.!.`.    S.4.%       6 _ l   l _ ,       @ b *.    1.q.=.=   } n $       g o.a . p %.$     ",
"      & W.Z o A N.G       % U C.  - F.!.`.    S.4.%       , _ l   l _ ,       @ b *.    1.q.=.=   } n O       g o.a . p %.$     ",
"      & W.Z o A N.G       & U C.  - F.!.`.    S.4.%       6 _ l   l _ ,       @ b *.    1.q.=.=   } n $       g o.a . p %.$     ",
"      & W.Z o A N.G       % U C.  - F.!.`.    S.x.L D D D c ..l   l { j u u u f W *.    1.q.=.=   } n O       g o.a . p %.$     ",
"      & W.Z o A N.G       & U C.  - F.!.`.    R _._.R.R.{.J.e.l   a +.$.#.#.#.#.#.V     1.q.=.=   } n O       g o.a . i 2.$     ",
"      & W.Z o A N.G       % U C.  - F.!.`.    * 0 0 q 0 z.J.r.l   X 2 1 1 1 1 1 1 +     1.q.=.=   } n $       g o.a . i %.$     ",
"      & W.Z o A N.G       & U C.  w F.!.`.              7.H.r.l                         1.q.=.2   } n $       g o.a . i %.$     ",
"      & W.M.g.P.(.G       % U {.T h.].^.|.T T T T T T T Y./.u.:.B B B B B B B B B B B ( p.q.i.' ( 2.m O       g 2.=.( | %.$     ",
"      # 6.f.d.f.s.t       # F v.s.d.n.5.V.j.d.d.d.s.d.s.n.8.C ) ! ! ! ! ! ! ! ! ! ! ! ! { / ` ^ ! ) f O       7 ~ ) ^ ^ ~ O     ",
"      o 9 e e e 9 #         & e e e e r e e e e e e e e e 4 : > > > > > > > > > > > > > > ; > > > > + o       O ; > > > ;       ",
"                                        .                                                                                       ",
"                                                                                                                                ",
"  5 5 5 5 5   5 5 5 5 5   E E  Xx x E E E x 5 x E x  Xx 5    XE   5 5 5 5 5   5 5 5 5 5   E E  Xx x E E E x 5 x E x  Xx 5    XE ",
"  E E E E E   E E E E E   E 5 5 x x E  X5 5 x x E E 5 5 x   E E   E E E E E   E E E E E   E 5 5 x x E  X5 5 x x E E 5 5 x   E E ",
"  E E E E E   E E E E E   5 5 5 5 x E 5 5 5 5 x E 5 5 5 5   5 x   E E E E E   E E E E E   5 5 5 5 x E 5 5 5 5 x E 5 5 5 5   5 x ",
"                                                                                                                                ",
"  E  X X XE   E  X X XE    X X X Xx  XE 5 E E E  XE  XE E   E E   E  X X XE   E  X X XE    X X X Xx  XE 5 E E E  XE  XE E   E E ",
"   Xx E x x    Xx E x x   E E E 5 x 5 5 5 5 5 5 5 5 5 5 5   5 5    Xx E x x    Xx E x x   E E E 5 x 5 5 5 5 5 5 5 5 5 5 5   5 5 ",
"   XE E E x    XE E E x   E E E E x  XE E E  XE x 5 E E  X  x 5    XE E E x    XE E E x   E E E E x  XE E E  XE x 5 E E  X  x 5 ",
"   Xx E x x    Xx E x x   E E E 5 x  X XE  X5  X X X5 x 5    X X   Xx E x x    Xx E x x   E E E 5 x  X XE  X5  X X X5 x 5    X X",
"  E 5 5 5 E   E 5 5 5 E   5 5 5 5 x  XE E E 5 E  XE 5 x 5   E E   E 5 5 5 E   E 5 5 5 E   5 5 5 5 x  XE E E 5 E  XE 5 x 5   E E ",
"                                                                                                                                ",
"   XE E E E E E E E E x   E E E E E E E E E E x  XE E E E E E E    XE E E E E E E E E x   E E E E E E E E E E x  XE E E E E E E ",
"   XE E E E E E E E E x   E E E E E E E E E E x  XE E E E E E E    XE E E E E E E E E x   E E E E E E E E E E x  XE E E E E E E ",
"   XE E x x x x x E E x   E E x x x x x x E E x  XE E  X X X X X   XE E x x x x x E E x   E E x x x x x x E E x  XE E  X X X X X",
"   XE E E E E E E E E x   E E x E E E E  XE E x  XE E E E E E E    XE E E E E E E E E x   E E x E E E E  XE E x  XE E E E E E E ",
"   XE E E E E E E E E x   E E x E E E E  XE E x  XE E E E E E E    XE E E E E E E E E x   E E x E E E E  XE E x  XE E E E E E E ",
"   XE E E E E E E E E x   E E x E E E E  XE E x  XE E E E E E E    XE E E E E E E E E x   E E x E E E E  XE E x  XE E E E E E E ",
"   XE E E E E E E E E x   E E x E E E E  XE E x  XE E E E E E E    XE E E E E E E E E x   E E x E E E E  XE E x  XE E E E E E E ",
"   XE E E E E E E E E x   E E x E E E E  XE E x  XE E E E E E E    XE E E E E E E E E x   E E x E E E E  XE E x  XE E E E E E E ",
"   XE E E E E E E E E x   E E E E E E E E E E x  XE E E E E E E    XE E E E E E E E E x   E E E E E E E E E E x  XE E E E E E E ",
"   XE E E E E E E E E x   E E E E E E E E E E x  XE E E E E E E    XE E E E E E E E E x   E E E E E E E E E E x  XE E E E E E E ",
"  5 5 5 5 5 5 5 5 5 5 5   5 5 5 5 5 5 5 5 5 5 E E 5 5 5 5 5 5 5   5 5 5 5 5 5 5 5 5 5 5   5 5 5 5 5 5 5 5 5 5 E E 5 5 5 5 5 5 5 ",
"   X X X X X X X X X X X   X X X X X X X X X X XE  X X X X X X X   X X X X X X X X X X X   X X X X X X X X X X XE  X X X X X X X",
"   XE E E E E E E E E x   E  X X X X X X X Xx x  XE E E E  XE E    XE E E E E E E E E x   E  X X X X X X X Xx x  XE E E E  XE E ",
"   XE E x E E E E E E x   E E  X X X X X Xx x x  XE E E E E E E    XE E x E E E E E E x   E E  X X X X X Xx x x  XE E E E E E E ",
"   XE E x  XE E E E E x   E E E  X X X X Xx x x  XE E  X X X X X   XE E x  XE E E E E x   E E E  X X X X Xx x x  XE E  X X X X X",
"   XE E E E E E E E E x   E E E E  X X Xx x x x  XE E  XE E E E    XE E E E E E E E E x   E E E E  X X Xx x x x  XE E  XE E E E ",
"   XE E E x x x E E E x   E E E E E x x x x x x  XE E  XE E E E    XE E E x x x E E E x   E E E E E x x x x x x  XE E  XE E E E ",
"   XE E E x x x E E E x   E E E E 5 5 x x x x x  XE E  XE E E E    XE E E x x x E E E x   E E E E 5 5 x x x x x  XE E  XE E E E ",
"   XE x E  X XE E E E x   E E E 5 5 5 5 x x x x  XE E  XE E E E    XE x E  X XE E E E x   E E E 5 5 5 5 x x x x  XE E  XE E E E ",
"   XE  XE E E E x x E x   E E 5 5 5 5 5 5 x x x  Xx E  Xx x x x    XE  XE E E E x x E x   E E 5 5 5 5 5 5 x x x  Xx E  Xx x x x ",
"   XE E E E E E  XE E x   E 5 5 5 5 5 5 5 5 x x  XE E E E E E E    XE E E E E E  XE E x   E 5 5 5 5 5 5 5 5 x x  XE E E E E E E ",
"  E 5 5 5 5 5 5 5 5 5 E   5 5 5 5 5 5 5 5 5 5 x  X5 5 5 5 5 5 5   E 5 5 5 5 5 5 5 5 5 E   5 5 5 5 5 5 5 5 5 5 x  X5 5 5 5 5 5 5 "
};
