/* XPM */
static char *anim_7_1[] = {
/* columns rows colors chars-per-pixel */
"67 67 33 1 ",
"  c #329898",
". c #3EA6A7",
"X c #3EAAAA",
"o c #3EB9B9",
"O c #40AFB0",
"+ c #45B0B0",
"@ c #4BB4B4",
"# c #45BDBD",
"$ c #4BBCBC",
"% c #51BEBE",
"& c #48BFC0",
"* c #47C2C2",
"= c #4CC3C3",
"- c #4CCBCB",
"; c #52C6C6",
": c #59C6C6",
"> c #53C7C8",
", c #54CACA",
"< c #5BCCCC",
"1 c #53CFD0",
"2 c #5FCFD0",
"3 c #56D1D1",
"4 c #5CD3D4",
"5 c #60CFCF",
"6 c #63D3D3",
"7 c #69D6D6",
"8 c #64D8D8",
"9 c #6CD9D9",
"0 c #72DEDE",
"q c #75E1E1",
"w c #79E2E2",
"e c #D9FEFE",
"r c None",
/* pixels */
"rrrrrrrrrrrrrrrrrrrrrrrrrrrrrrrrrrrrrrrrrrrrrrrrrrrrrrrrrrrrrrrrrrr",
"rrrrrrrrrrrrrrrrrrrrrrrrrrrrrrrrrrrrrrrrrrrrrrrrrrrrrrrrrrrrrrrrrrr",
"rrrrrrrrrrrrrrrrrrrrrrrrrrrrrrrrrrrrrrrrrrrrrrrrrrrrrrrrrrrrrrrrrrr",
"rrrrrrrrrrrrrrrrrrrrrrrrrrrrrrrrrrrrrrrrrrrrrrrrrrrrrrrrrrrrrrrrrrr",
"rrrrrrrrrrrrrrrrrrrrrrrrrrrrrrrrrrrrrrrrrrrrrrrrrrrrrrrrrrrrrrrrrrr",
"rrrrrrrrrrrrrrrrrrrrrrrrrrrrrrrrrrrrrrrrrrrrrrrrrrrrrrrrrrrrrrrrrrr",
"rrrrrrrrrrrrrrrrrrrrrrrrrrrrrrrrrrrrrrrrrrrrrrrrrrrrrrrrrrrrrrrrrrr",
"rrrrrrrrrrrrrrrrrrrrrrrrrrrrrrrrrrrrrrrrrrrrrrrrrrrrrrrrrrrrrrrrrrr",
"rrrrrrrrrrrrrrrrrrrrrrrrrrrrrrrrrrrrrrrrrrrrrrrrrrrrrrrrrrrrrrrrrrr",
"rrrrrrrrrrrrrrrrrrrrrrrrrrr==>>>>>>>;;>===rrrrrrrrrrrrrrrrrrrrrrrrr",
"rrrrrrrrrrrrrrrrrrrrrrrr==>,eeeeeeeeeeeee,>==rrrrrrrrrrrrrrrrrrrrrr",
"rrrrrrrrrrrrrrrrrrrrrr==>eee,>>>>;;=>>>>,eee>==rrrrrrrrrrrrrrrrrrrr",
"rrrrrrrrrrrrrrrrrrrrr-=ee>==>3rrrrrrrrr4==>,ee=-rrrrrrrrrrrrrrrrrrr",
"rrrrrrrrrrrrrrrrrrr=&>e;==4rrrrrrrrrrrrrrr4==>e>=*rrrrrrrrrrrrrrrrr",
"rrrrrrrrrrrrrrrrrr==ee=-rrrrrrrrrrrrrrrrrrrrr;=ee==rrrrrrrrrrrrrrrr",
"rrrrrrrrrrrrrrrrr=&e>==rrrrrrrrrrrrrrrrrrrrrrr==>e==rrrrrrrrrrrrrrr",
"rrrrrrrrrrrrrrrr==e==rrrrrrrrrrrrrrrrrrrrrrrrrr4=>e==rrrrrrrrrrrrrr",
"rrrrrrrrrrrrrrr==e==rrrrrrrrrrrrrrrrrrrrrrrrrrrrr==e==rrrrrrrrrrrrr",
"rrrrrrrrrrrrrr==e==rrrrrrrrrrrrrrrrrrrrrrrrrrrrrr1==e==rrrrrrrrrrrr",
"rrrrrrrrrrrrr==e=*rrrrrrrrrrrrrrrrrrrrrrrrrrrrrrrr1==e==rrrrrrrrrrr",
"rrrrrrrrrrrr*=e==rrrrrrrrrrrrrrrrrrrrrrrrrrrrrrrrr---=e==rrrrrrrrrr",
"rrrrrrrrrrrr=e>>rrrrrrrrrrrrrrrrrrrrrrrrrrrrrrr=o=---;>e=rrrrrrrrrr",
"rrrrrrrrrrr=;e=3rrrrrrrrrrrrrrrrrrrrrrrrrrrrr,>=e#-,-4=e>=rrrrrrrrr",
"rrrrrrrrrrr=e>;rrrrrrrrrrrrrrrrrrrrrrr,=;;>31;>e>==#=1,<e=rrrrrrrrr",
"rrrrrrrrrr=,e=3rrrr*o#rrrrrrr===-4r11;:eee<<8:e<-;=e=13=e,=rrrrrrrr",
"rrrrrrrrrr=e<=rrrrr#e#rrrrrr>,ee:<13<;e<59e622e<3><e=3-,<e=rrrrrrrr",
"rrrrrrrrrr>e,4rrrrr>e,4rrrr4=e69e<43<e<259ee9e6:%<e:,--3,e>rrrrrrrr",
"rrrrrrrrr=<e=4rrrr4>e,4-3348<e09e<:<e66<5eqewe6<<e,,---4,e=rrrrrrrr",
"rrrrrrrrr=e<>rrrrr4,e<84<=,<6eqe77e7e765e70eqe66e:%3-1,8>e>rrrrrrrr",
"rrrrrrrrr>e,4rrrr3><e<3:<eee0ee97e57e9ee570e96ee<$&&33,>2e=rrrrrrrr",
"rrrrrrrr4,e>3rrrr8;e6,<ee<<<7e09e5<5e06659ee75::=;=;,<<ee==rrrrrrrr",
"rrrrrrrr>,e=3rr,3,<e::e5<%+:6e77e<<56e769e0e5:%::<<eeee<=;rrrrrrrrr",
"rrrrrrrr=e<,---3,<e<<<e<$ X<e66e7:5e<<eee7qe0<<5eee<<,==3rrrrrrrrrr",
"rrrrrrrr;e,4--,<:e<%::e:@O,<e<<e77e<@<<5760eqeee<<=>843rrrrrrrrrrrr",
"rrrrrrrr>e,313>,e:%%:e<,<>2e<<<<ee:@<&:<60eee6,;>9rrrrrrr#o#rrrrrrr",
"rrrrrrrr=e>4,=<e>-=ee2<,<ee,,,4,;=>33@;6eee05683rrrrrrrrr=e#rrrrrrr",
"rrrrrrrr*e>4,ee,$.%<676ee<,>3rr41411<<ee7qe<43rrrrrrrrrr=>e#rrrrrrr",
"rrrrrrrr&&=:e<$@.=<6eee<=,3rrrrrr-3>,e<56e6<4rrrrrrrrrrr=e,=rrrrrrr",
"rrrrrrrrr4=e<<@@%<ee<,=>8rrrrrrrr4,:e>@86e<4rrrrrrrrrrrr>e=rrrrrrrr",
"rrrrrrrrr1=e66<<ee,=,33rrrrrrrrrr->e,@3@6e;4rrrrrrrrrrr;,e=rrrrrrrr",
"rrrrrrrrrr=>eeee<;,4rrrrrrrrrrrr8=e<,-3>e<,rrrrrrrrrrrr=e<=rrrrrrrr",
"rrrrrrrrrr-,>>>=;4rrrrrrrrrrrrrr=,e;1-3,e,4rrrrrrrrrrr4>e>rrrrrrrrr",
"rrrrrrrrrrr==,43-rrrrrrrrrrrrrrr=e<>--><e=rrrrrrrrrrrr=,e*rrrrrrrrr",
"rrrrrrrrrrr#e=3-rrrrrrrrrrrrrrrr=e,1-3=e<;rrrrrrrrrrrr=e;=rrrrrrrrr",
"rrrrrrrrrrr&e,>-rrrrrrrrrrrrrrrr>e,4,,,e=rrrrrrrrrrrr=>e=rrrrrrrrrr",
"rrrrrrrrrrr=>e=3rrrrrrrrrrrrrrrr=e,<,-e==rrrrrrrrrrrr=e>>rrrrrrrrrr",
"rrrrrrrrrrrr=e>-rrrrrrrrrrrrrrrr&=e<<e=>rrrrrrrrrrrr=>e=rrrrrrrrrrr",
"rrrrrrrrrrrr*=e==rrrrrrrrrrrrrrrr=>ee==rrrrrrrrrrrr==e=*rrrrrrrrrrr",
"rrrrrrrrrrrrr==e==rrrrrrrrrrrrrrrr#=&=rrrrrrrrrrrr*=e==rrrrrrrrrrrr",
"rrrrrrrrrrrrrr==e==rrrrrrrrrrrrrrrrrrrrrrrrrrrrrr==e==rrrrrrrrrrrrr",
"rrrrrrrrrrrrrrr=#e=-rrrrrrrrrrrrrrrrrrrrrrrrrrrr*=e==rrrrrrrrrrrrrr",
"rrrrrrrrrrrrrrrr==e==rrrrrrrrrrrrrrrrrrrrrrrrrr==e&=rrrrrrrrrrrrrrr",
"rrrrrrrrrrrrrrrrr==e==>rrrrrrrrrrrrrrrrrrrrrr==>e&=rrrrrrrrrrrrrrrr",
"rrrrrrrrrrrrrrrrrr==ee>==rrrrrrrrrrrrrrrrrr;=>ee==rrrrrrrrrrrrrrrrr",
"rrrrrrrrrrrrrrrrrrr*=>ee>==4rrrrrrrrrrrr8>=>ee>==rrrrrrrrrrrrrrrrrr",
"rrrrrrrrrrrrrrrrrrrrr==>ee,,>==4rrr44===>,ee;==rrrrrrrrrrrrrrrrrrrr",
"rrrrrrrrrrrrrrrrrrrrrrr==>eeee,,>>>;>,eeee>==rrrrrrrrrrrrrrrrrrrrrr",
"rrrrrrrrrrrrrrrrrrrrrrrrr=&>><eeeeeeee,>>==rrrrrrrrrrrrrrrrrrrrrrrr",
"rrrrrrrrrrrrrrrrrrrrrrrrrrrrr===>>=;==>rrrrrrrrrrrrrrrrrrrrrrrrrrrr",
"rrrrrrrrrrrrrrrrrrrrrrrrrrrrrrrrrrrrrrrrrrrrrrrrrrrrrrrrrrrrrrrrrrr",
"rrrrrrrrrrrrrrrrrrrrrrrrrrrrrrrrrrrrrrrrrrrrrrrrrrrrrrrrrrrrrrrrrrr",
"rrrrrrrrrrrrrrrrrrrrrrrrrrrrrrrrrrrrrrrrrrrrrrrrrrrrrrrrrrrrrrrrrrr",
"rrrrrrrrrrrrrrrrrrrrrrrrrrrrrrrrrrrrrrrrrrrrrrrrrrrrrrrrrrrrrrrrrrr",
"rrrrrrrrrrrrrrrrrrrrrrrrrrrrrrrrrrrrrrrrrrrrrrrrrrrrrrrrrrrrrrrrrrr",
"rrrrrrrrrrrrrrrrrrrrrrrrrrrrrrrrrrrrrrrrrrrrrrrrrrrrrrrrrrrrrrrrrrr",
"rrrrrrrrrrrrrrrrrrrrrrrrrrrrrrrrrrrrrrrrrrrrrrrrrrrrrrrrrrrrrrrrrrr",
"rrrrrrrrrrrrrrrrrrrrrrrrrrrrrrrrrrrrrrrrrrrrrrrrrrrrrrrrrrrrrrrrrrr"
};
