/* XPM */
static char *anim_2[] = {
/* columns rows colors chars-per-pixel */
"67 67 39 1 ",
"  c #983293",
". c #A73EA1",
"X c #AA3EA5",
"o c #B93EB3",
"O c #B042AA",
"+ c #B349AE",
"@ c #BB43B5",
"# c #B64DB0",
"$ c #BA4BB4",
"% c #BF46B8",
"& c #BE4BB8",
"* c #BE51B9",
"= c #C247BC",
"- c #C34BBD",
"; c #C451BE",
": c #C64EC0",
"> c #CB4CC5",
", c #C752C0",
"< c #C954C3",
"1 c #C659C0",
"2 c #CC5AC6",
"3 c #CE53C8",
"4 c #CE5DC8",
"5 c #D156CB",
"6 c #D35CCD",
"7 c #D65FD0",
"8 c #CF60C9",
"9 c #D263CC",
"0 c #D468CF",
"q c #D663D0",
"w c #D864D2",
"e c #D669D1",
"r c #D96CD4",
"t c #DC70D7",
"y c #DE73D9",
"u c #E175DC",
"i c #E279DD",
"p c #FED9FC",
"a c None",
/* pixels */
"aaaaaaaaaaaaaaaaaaaaaaaaaaaaaaaaaaaaaaaaaaaaaaaaaaaaaaaaaaaaaaaaaaa",
"aaaaaaaaaaaaaaaaaaaaaaaaaaaaaaaaaaaaaaaaaaaaaaaaaaaaaaaaaaaaaaaaaaa",
"aaaaaaaaaaaaaaaaaaaaaaaaaaaaaaaaaaaaaaaaaaaaaaaaaaaaaaaaaaaaaaaaaaa",
"aaaaaaaaaaaaaaaaaaaaaaaaaaaaaaaaaaaaaaaaaaaaaaaaaaaaaaaaaaaaaaaaaaa",
"aaaaaaaaaaaaaaaaaaaaaaaaaaaaaaaaaaaaaaaaaaaaaaaaaaaaaaaaaaaaaaaaaaa",
"aaaaaaaaaaaaaaaaaaaaaaaaaaaaaaaaaaaaaaaaaaaaaaaaaaaaaaaaaaaaaaaaaaa",
"aaaaaaaaaaaaaaaaaaaaaaaaaaaaaaaaaaaaaaaaaaaaaaaaaaaaaaaaaaaaaaaaaaa",
"aaaaaaaaaaaaaaaaaaaaaaaaaaaaaaaaaaaaaaaaaaaaaaaaaaaaaaaaaaaaaaaaaaa",
"aaaaaaaaaaaaaaaaaaaaaaaaaaaaaaaaaaaaaaaaaaaaaaaaaaaaaaaaaaaaaaaaaaa",
"aaaaaaaaaaaaaaaaaaaaaaaaaaa--,,,,,,,:,,;--aaaaaaaaaaaaaaaaaaaaaaaaa",
"aaaaaaaaaaaaaaaaaaaaaaaa--<<ppppppppppppp<,--aaaaaaaaaaaaaaaaaaaaaa",
"aaaaaaaaaaaaaaaaaaaaaa--<ppp<,,,:,,,<<,<<ppp,--aaaaaaaaaaaaaaaaaaaa",
"aaaaaaaaaaaaaaaaaaaaa>-pp<--,6aaaaaaaaa6:-<<pp-:aaaaaaaaaaaaaaaaaaa",
"aaaaaaaaaaaaaaaaaaa-&,p<--6aaaaaaaaaaaaaaa6--,p,-=aaaaaaaaaaaaaaaaa",
"aaaaaaaaaaaaaaaaaa--pp->aaaaaaaaaaaaaaaaaaaaa>;pp--aaaaaaaaaaaaaaaa",
"aaaaaaaaaaaaaaaaa--p,--aaaaaaaaaaaaaaaaaaaaaaa--<p--aaaaaaaaaaaaaaa",
"aaaaaaaaaaaaaaaa--p--aaaaaaaaaaaaaaaaaaaaaaaaaa6-,p--aaaaaaaaaaaaaa",
"aaaaaaaaaaaaaaa--p--aaaaaaaaaaaaaaaaaaaaaaaaaaaaa--p--aaaaaaaaaaaaa",
"aaaaaaaaaaaaaa--p--aaaaaaaaaaaaaaaaaaaaaaaaaaaaaa3--p--aaaaaaaaaaaa",
"aaaaaaaaaaaaa--p--aaaaaaaaaaaaaaaaaaaaaaaaaaaaaaaa3,-p--aaaaaaaaaaa",
"aaaaaaaaaaaa--p--aaaaaaaaaaaaaaaaaaaaaaaaaaaaaaaaa>>--p--aaaaaaaaaa",
"aaaaaaaaaaaa=p<:aaaaaaaaaaaaaaaaaaaaaaaaaaaaaaa-o->>><<p-aaaaaaaaaa",
"aaaaaaaaaaa-,p,5aaaaaaaaaaaaaaaaaaaaaaaaaaaaa3,-p@>3>5-p<:aaaaaaaaa",
"aaaaaaaaaaa-p,-aaaaaaaaaaaaaaaaaaaaaaa<-;,<55<,p;::@-532p-aaaaaaaaa",
"aaaaaaaaaa-<p;5aaaa=o@aaaaaaa---:6a33,,ppp24e,p2,<-p-35:p<-aaaaaaaa",
"aaaaaaaaaa-p<:aaaaa%p%aaaaaa;<pp<2532,p48rp949p26,2p-5><2p-aaaaaaaa",
"aaaaaaaaaa,p<6aaaaa;p<6aaaa6-p0rp2642p448rpprp91&<p,<>>5,p,aaaaaaaa",
"aaaaaaaaa:2p-6aaaa6<p<7>557q6prrp8<4p9948pypip922p,2>>>6<p,aaaaaaaa",
"aaaaaaaaa-p2<aaaaa7<p2q62-120pup90prpe98p0ypyp0ep2;4>357<p,aaaaaaaa",
"aaaaaaaaa,p<6aaaa6<4p29,2ppptpprrp99prpp80ypr9pp2$&%56<,4p-aaaaaaaa",
"aaaaaaaaq<p<5aaaa7;p9<4pp428epyrp928pt990rpp08;;-,&,<<4pp,-aaaaaaaa",
"aaaaaaaa-2p-5aa35<2p,1p82;O;9peep224epe9rpyp0;;11<4pppp2-,aaaaaaaaa",
"aaaaaaaa-p2<>>>521p242p2& X2p99p988p44ppp0upr649ppp62<-,5aaaaaaaaaa",
"aaaaaaaa,p<6>>32,p2*;1p<$O,8p44p00p2+1190eypyppp2<;<w65aaaaaaaaaaaa",
"aaaaaaaa,p<535<<p<;*1p2<1,8p<44<pp1$2;<49yppp91;<waaaaaaa%o%aaaaaaa",
"aaaaaaaa,p<6<-2p;<*pp9222pp,<36<;&<55#;9pppt8966aaaaaaaaa%p@aaaaaaa",
"aaaaaaaa%p,6<pp<$.-4006pp2<-5aa6553524pprup476aaaaaaaaaa-<p%aaaaaaa",
"aaaaaaaa%%-2p2&+.;19ppp1;26aaaaaa>6<;p449p926aaaaaaaaaaa-p<-aaaaaaa",
"aaaaaaaaa6-p44++&4pp2,-<qaaaaaaaa6<<p;+q9p26aaaaaaaaaaaa,p-aaaaaaaa",
"aaaaaaaaa3-p9844pp<,365aaaaaaaaaa:,p1$5+6p,6aaaaaaaaaaa:<p-aaaaaaaa",
"aaaaaaaaaa-,pppp2,<6aaaaaaaaaaaaq-p<<33-p42aaaaaaaaaaaa-p2-aaaaaaaa",
"aaaaaaaaaa3>,<<->9aaaaaaaaaaaaaa:<p;3>5<p<7aaaaaaaaaaa6,p,aaaaaaaaa",
"aaaaaaaaaaa--265>aaaaaaaaaaaaaaa-p2<>><2p-aaaaaaaaaaaa-<p=aaaaaaaaa",
"aaaaaaaaaaa@p-5>aaaaaaaaaaaaaaaa-p25>3;p2:aaaaaaaaaaaa-p<-aaaaaaaaa",
"aaaaaaaaaaa=p<:>aaaaaaaaaaaaaaaa:p<63<<p-aaaaaaaaaaaa-<p-aaaaaaaaaa",
"aaaaaaaaaaa-,p-6aaaaaaaaaaaaaaaa-p<62;p--aaaaaaaaaaaa-p<<aaaaaaaaaa",
"aaaaaaaaaaaa-p<>aaaaaaaaaaaaaaaa=-p22p->aaaaaaaaaaaa-,p-aaaaaaaaaaa",
"aaaaaaaaaaaa=-p--aaaaaaaaaaaaaaaa-,pp--aaaaaaaaaaaa--p-=aaaaaaaaaaa",
"aaaaaaaaaaaaa--p&-aaaaaaaaaaaaaaaa=-%-aaaaaaaaaaaa=-p--aaaaaaaaaaaa",
"aaaaaaaaaaaaaa--p-=aaaaaaaaaaaaaaaaaaaaaaaaaaaaaa--p--aaaaaaaaaaaaa",
"aaaaaaaaaaaaaaa--p-:aaaaaaaaaaaaaaaaaaaaaaaaaaaa=%p--aaaaaaaaaaaaaa",
"aaaaaaaaaaaaaaaa--p--aaaaaaaaaaaaaaaaaaaaaaaaaa--p--aaaaaaaaaaaaaaa",
"aaaaaaaaaaaaaaaaa--p--,aaaaaaaaaaaaaaaaaaaaaa--<p--aaaaaaaaaaaaaaaa",
"aaaaaaaaaaaaaaaaaa--pp<-:aaaaaaaaaaaaaaaaaa--,pp--aaaaaaaaaaaaaaaaa",
"aaaaaaaaaaaaaaaaaaa=-<pp<--6aaaaaaaaaaaa6<-<pp,--aaaaaaaaaaaaaaaaaa",
"aaaaaaaaaaaaaaaaaaaaa--<pp2>,--7aaa66--,<2pp<--aaaaaaaaaaaaaaaaaaaa",
"aaaaaaaaaaaaaaaaaaaaaaa--<pppp2<<,,,<<pppp<--aaaaaaaaaaaaaaaaaaaaaa",
"aaaaaaaaaaaaaaaaaaaaaaaaa--,,<pppppppp2,;--aaaaaaaaaaaaaaaaaaaaaaaa",
"aaaaaaaaaaaaaaaaaaaaaaaaaaaaa---,,,,-->aaaaaaaaaaaaaaaaaaaaaaaaaaaa",
"aaaaaaaaaaaaaaaaaaaaaaaaaaaaaaaaaaaaaaaaaaaaaaaaaaaaaaaaaaaaaaaaaaa",
"aaaaaaaaaaaaaaaaaaaaaaaaaaaaaaaaaaaaaaaaaaaaaaaaaaaaaaaaaaaaaaaaaaa",
"aaaaaaaaaaaaaaaaaaaaaaaaaaaaaaaaaaaaaaaaaaaaaaaaaaaaaaaaaaaaaaaaaaa",
"aaaaaaaaaaaaaaaaaaaaaaaaaaaaaaaaaaaaaaaaaaaaaaaaaaaaaaaaaaaaaaaaaaa",
"aaaaaaaaaaaaaaaaaaaaaaaaaaaaaaaaaaaaaaaaaaaaaaaaaaaaaaaaaaaaaaaaaaa",
"aaaaaaaaaaaaaaaaaaaaaaaaaaaaaaaaaaaaaaaaaaaaaaaaaaaaaaaaaaaaaaaaaaa",
"aaaaaaaaaaaaaaaaaaaaaaaaaaaaaaaaaaaaaaaaaaaaaaaaaaaaaaaaaaaaaaaaaaa",
"aaaaaaaaaaaaaaaaaaaaaaaaaaaaaaaaaaaaaaaaaaaaaaaaaaaaaaaaaaaaaaaaaaa"
};
