/* XPM */
static char *anim_6_1[] = {
/* columns rows colors chars-per-pixel */
"67 67 167 2 ",
"   c #1F8989",
".  c #2E9A9A",
"X  c #2E9B9C",
"o  c #2D9E9E",
"O  c #2FA4A5",
"+  c #32A2A2",
"@  c #34A3A4",
"#  c #38A7A7",
"$  c #3AA7A7",
"%  c #39A8A8",
"&  c #3AA9A9",
"*  c #3BA9A9",
"=  c #3EA9A9",
"-  c #38ABAC",
";  c #3AAFAF",
":  c #3BAFAF",
">  c #37B0B0",
",  c #34B2B3",
"<  c #35B3B4",
"1  c #36B4B4",
"2  c #36B7B7",
"3  c #38B2B3",
"4  c #3AB2B3",
"5  c #3CB1B1",
"6  c #38B4B4",
"7  c #38B5B5",
"8  c #39B7B7",
"9  c #3AB6B6",
"0  c #3DB4B4",
"q  c #3EB5B5",
"w  c #3CB7B7",
"e  c #3DB7B7",
"r  c #3FB7B7",
"t  c #35BFBF",
"y  c #39B8B8",
"u  c #3AB9B9",
"i  c #3BB9B9",
"p  c #3DB8B8",
"a  c #3EB9BA",
"s  c #3CBABB",
"d  c #3DBABB",
"f  c #3FBCBC",
"g  c #41B6B6",
"h  c #40B7B7",
"j  c #43B7B7",
"k  c #44B4B4",
"l  c #44B7B7",
"z  c #41B8B8",
"x  c #43B8B8",
"c  c #43B9BA",
"v  c #40BBBB",
"b  c #41BBBB",
"n  c #43BBBB",
"m  c #44B8B8",
"M  c #44B9BA",
"N  c #45BBBB",
"B  c #40BCBC",
"V  c #40BDBD",
"C  c #41BDBD",
"Z  c #42BDBD",
"A  c #43BDBD",
"S  c #40BEBE",
"D  c #41BEBE",
"F  c #41BFBF",
"G  c #42BEBE",
"H  c #43BFBF",
"J  c #46BDBD",
"K  c #47BDBD",
"L  c #44BEBE",
"P  c #45BEBE",
"I  c #44BFBF",
"U  c #46BEBE",
"Y  c #47BFBF",
"T  c #48BBBB",
"R  c #4ABDBD",
"E  c #4BBDBD",
"W  c #48BEBE",
"Q  c #4DBCBC",
"!  c #4CBEBE",
"~  c #4DBFBF",
"^  c #4EBFBF",
"/  c #37C0C0",
"(  c #38C0C0",
")  c #38C1C2",
"_  c #39C1C2",
"`  c #3BC1C2",
"'  c #3BC3C3",
"]  c #3CC3C3",
"[  c #3DC4C4",
"{  c #3EC4C4",
"}  c #3FC5C5",
"|  c #43C0C0",
" . c #44C0C0",
".. c #45C0C1",
"X. c #47C0C1",
"o. c #44C2C2",
"O. c #45C2C2",
"+. c #44C3C3",
"@. c #45C3C3",
"#. c #46C2C2",
"$. c #47C2C2",
"%. c #46C3C3",
"&. c #40C5C5",
"*. c #41C5C5",
"=. c #41C6C6",
"-. c #42C6C6",
";. c #42C7C7",
":. c #44C7C7",
">. c #45C7C7",
",. c #48C0C1",
"<. c #4AC0C1",
"1. c #49C3C3",
"2. c #4AC2C2",
"3. c #4BC3C3",
"4. c #48C4C4",
"5. c #49C4C4",
"6. c #4AC5C5",
"7. c #4AC6C6",
"8. c #4CC4C4",
"9. c #4CC5C5",
"0. c #4DC5C5",
"q. c #4FC5C5",
"w. c #4CC6C6",
"e. c #45C8C9",
"r. c #46C8C9",
"t. c #46CACA",
"y. c #47CACA",
"u. c #49CBCB",
"i. c #4ACBCB",
"p. c #4EC9C9",
"a. c #4BCCCC",
"s. c #4CCDCD",
"d. c #4DCDCD",
"f. c #4FCECE",
"g. c #50C6C6",
"h. c #50C7C8",
"j. c #51C7C8",
"k. c #52C7C8",
"l. c #50C9C9",
"z. c #51C9C9",
"x. c #53C9C9",
"c. c #54C8C8",
"v. c #55CACA",
"b. c #55CBCB",
"n. c #57CACA",
"m. c #56CBCB",
"M. c #57CCCC",
"N. c #58CDCD",
"B. c #59CDCD",
"V. c #5BCFCF",
"C. c #51D0D0",
"Z. c #5CD0D0",
"A. c #5DD1D1",
"S. c #5FD0D0",
"D. c #5FD2D2",
"F. c #61D3D3",
"G. c #62D4D5",
"H. c #63D6D6",
"J. c #64D7D7",
"K. c #65D7D7",
"L. c #68D8D8",
"P. c #69D9D9",
"I. c #6ADADA",
"U. c #6ADCDC",
"Y. c #6CDDDD",
"T. c #C0FDFD",
"R. c None",
/* pixels */
"R.R.R.R.R.R.R.R.R.R.R.R.R.R.R.R.R.R.R.R.R.R.R.R.R.R.R.R.R.R.R.R.R.R.R.R.R.R.R.R.R.R.R.R.R.R.R.R.R.R.R.R.R.R.R.R.R.R.R.R.R.R.R.R.R.R.R.",
"R.R.R.R.R.R.R.R.R.R.R.R.R.R.R.R.R.R.R.R.R.R.R.R.R.R.R.R.R.R.R.R.R.R.R.R.R.R.R.R.R.R.R.R.R.R.R.R.R.R.R.R.R.R.R.R.R.R.R.R.R.R.R.R.R.R.R.",
"R.R.R.R.R.R.R.R.R.R.R.R.R.R.R.R.R.R.R.R.R.R.R.R.R.R.R.R.R.R.R.R.R.R.R.R.R.R.R.R.R.R.R.R.R.R.R.R.R.R.R.R.R.R.R.R.R.R.R.R.R.R.R.R.R.R.R.",
"R.R.R.R.R.R.R.R.R.R.R.R.R.R.R.R.R.R.R.R.R.R.R.R.R.R.R.R.R.R.R.R.R.R.R.R.R.R.R.R.R.R.R.R.R.R.R.R.R.R.R.R.R.R.R.R.R.R.R.R.R.R.R.R.R.R.R.",
"R.R.R.R.R.R.R.R.R.R.R.R.R.R.R.R.R.R.R.R.R.R.R.R.R.R.R.R.R.R.R.R.R.R.R.R.R.R.R.R.R.R.R.R.R.R.R.R.R.R.R.R.R.R.R.R.R.R.R.R.R.R.R.R.R.R.R.",
"R.R.R.R.R.R.R.R.R.R.R.R.R.R.R.R.R.R.R.R.R.R.R.R.R.R.R.R.R.R.R.R.R.R.R.R.R.R.R.R.R.R.R.R.R.R.R.R.R.R.R.R.R.R.R.R.R.R.R.R.R.R.R.R.R.R.R.",
"R.R.R.R.R.R.R.R.R.R.R.R.R.R.R.R.R.R.R.R.R.R.R.R.R.R.R.R.R.R.R.R.R.R.R.R.R.R.R.R.R.R.R.R.R.R.R.R.R.R.R.R.R.R.R.R.R.R.R.R.R.R.R.R.R.R.R.",
"R.R.R.R.R.R.R.R.R.R.R.R.R.R.R.R.R.R.R.R.R.R.R.R.R.R.R.R.R.R.R.R.R.R.R.R.R.R.R.R.R.R.R.R.R.R.R.R.R.R.R.R.R.R.R.R.R.R.R.R.R.R.R.R.R.R.R.",
"R.R.R.R.R.R.R.R.R.R.R.R.R.R.R.R.R.R.R.R.R.R.R.R.R.R.R.R.R.R.R.R.R.R.R.R.R.R.R.R.R.R.R.R.R.R.R.R.R.R.R.R.R.R.R.R.R.R.R.R.R.R.R.R.R.R.R.",
"R.R.R.R.R.R.R.R.R.R.R.R.R.R.R.R.R.R.R.R.R.R.R.R.R.R.R.X.A 2.2.8.2.0.2.2.2.2.0.2.H X.R.R.R.R.R.R.R.R.R.R.R.R.R.R.R.R.R.R.R.R.R.R.R.R.R.",
"R.R.R.R.R.R.R.R.R.R.R.R.R.R.R.R.R.R.R.R.R.R.R.R.H H 8.g.T.T.T.T.T.T.T.T.T.T.T.T.T.g.2.H H R.R.R.R.R.R.R.R.R.R.R.R.R.R.R.R.R.R.R.R.R.R.",
"R.R.R.R.R.R.R.R.R.R.R.R.R.R.R.R.R.R.R.R.R.R.H H 0.T.T.T.h.0.6.2.0.2.2.0.0.2.2.0.h.T.T.T.0.H | R.R.R.R.R.R.R.R.R.R.R.R.R.R.R.R.R.R.R.R.",
"R.R.R.R.R.R.R.R.R.R.R.R.R.R.R.R.R.R.R.R.R.X.2.T.T.g.2.A X.R.R.R.R.R.R.R.R.R.R.R.X.H 2.g.T.T.X.X.R.R.R.R.R.R.R.R.R.R.R.R.R.R.R.R.R.R.R.",
"R.R.R.R.R.R.R.R.R.R.R.R.R.R.R.R.R.R.R.H H 8.T.6.A X.R.R.R.R.R.R.R.R.R.R.R.R.R.R.R.R.R.X.A 0.T.2.H H R.R.R.R.R.R.R.R.R.R.R.R.R.R.R.R.R.",
"R.R.R.R.R.R.R.R.R.R.R.R.R.R.R.R.R.R.H W T.T.X.X.R.R.R.R.R.R.R.R.R.R.R.R.R.R.R.R.R.R.R.R.R.X.2.T.T.2.H R.R.R.R.R.R.R.R.R.R.R.R.R.R.R.R.",
"R.R.R.R.R.R.R.R.R.R.R.R.R.R.R.R.R. .A T.2.H H R.R.R.R.R.R.R.R.R.R.R.R.R.R.R.R.R.R.R.R.R.R.R.| H 2.T.A H R.R.R.R.R.R.R.R.R.R.R.R.R.R.R.",
"R.R.R.R.R.R.R.R.R.R.R.R.R.R.R.R. .A T.2.X.R.R.R.R.R.R.R.R.R.R.R.R.R.R.R.R.R.R.R.R.R.R.R.R.R.R.R.X.A T.A F R.R.R.R.R.R.R.R.R.R.R.R.R.R.",
"R.R.R.R.R.R.R.R.R.R.R.R.R.R.R.X.A T.A F R.R.R.R.R.R.R.R.R.R.R.R.R.R.R.R.R.R.R.R.R.R.R.R.R.R.R.R.R.H 2.T.A X.R.R.R.R.R.R.R.R.R.R.R.R.R.",
"R.R.R.R.R.R.R.R.R.R.R.R.R.R.H A T.A | R.R.R.R.R.R.R.R.R.R.R.R.R.R.R.R.R.R.R.R.R.R.R.R.R.R.R.R.R.R.R.H A T.A F R.R.R.R.R.R.R.R.R.R.R.R.",
"R.R.R.R.R.R.R.R.R.R.R.R.R.H A T.A X.R.R.R.R.R.R.R.R.R.R.R.R.R.R.R.R.R.R.R.R.R.R.R.R.R.R.R.R.R.R.R.R.&.A A T.W F R.R.R.R.R.R.R.R.R.R.R.",
"R.R.R.R.R.R.R.R.R.R.R.R.H W T.2.H R.R.R.R.R.R.R.R.R.R.R.R.R.R.R.R.R.R.R.R.R.R.R.R.R.R.R.R.R.R.R.R.R.R.} | X.T. .F R.R.R.R.R.R.R.R.R.R.",
"R.R.R.R.R.R.R.R.R.R.R.R.H T.6.X.R.R.R.R.R.R.R.R.R.R.R.R.R.R.R.R.R.R.R.R.R.R.R.R.R.R.R.R.R.R.R.a < 2 / / } X.3.T.H R.R.R.R.R.R.R.R.R.R.",
"R.R.R.R.R.R.R.R.R.R.R.X.2.T.A R.R.R.R.R.R.R.R.R.R.R.R.R.R.R.R.R.R.R.R.R.R.R.R.R.R.R.R.R.R.R.H H T.1 &.' ' s.H T.0.X.R.R.R.R.R.R.R.R.R.",
"R.R.R.R.R.R.R.R.R.R.R.A T.0.X.R.R.R.R.R.R.R.R.R.R.R.R.R.R.R.R.R.R.R.R.R.R.R.H A A H X.&.} X.A T.A d H 1 d :.X.6.T.A R.R.R.R.R.R.R.R.R.",
"R.R.R.R.R.R.R.R.R.R.H 0.T.A R.R.R.R.R.8 1 8 R.R.R.R.R.R.R.H f v H R.R.R.&.F 2.T.T.T.0.6.d.A T.0.A F A T.p t.t.X.T.0.H R.R.R.R.R.R.R.R.",
"R.R.R.R.R.R.R.R.R.R.H T.0.X.R.R.R.R.R.a T.a R.R.R.R.R.R.A 2.T.T.2.| } } X.A T.h.v.A.T.v.0.v.T.W d.H 8.T.a &._ X.j.T.H R.R.R.R.R.R.R.R.",
"R.R.R.R.R.R.R.R.R.R.2.T.2.R.R.R.R.R.R.2.T.,.R.R.R.R.R.t.A T.F.A.T.A a.6.2.T.8.2.z.A.T.T.J.T.v.M q 2.T.A H _ ( u.8.T.2.R.R.R.R.R.R.R.R.",
"R.R.R.R.R.R.R.R.R.X.g.T.H R.R.R.R.R.R.2.T.8.u./ _ &.u.d.0.T.G.F.T.0.W 0.T.v.0.X.0.T.U.T.Y.T.M.2.2.T. .X._ t ( u.8.T.3.R.R.R.R.R.R.R.R.",
"R.R.R.R.R.R.R.R.R.H T.g.X.R.R.R.R.R.s.6.T.3.a.u.X.H ,.8.V.T.U.T.V.M.T.M.T.V.h.g.T.v.G.T.P.T.V.v.T.A q &.t ( &.d.0.T.2.R.R.R.R.R.R.R.R.",
"R.R.R.R.R.R.R.R.R.2.T.8.d.R.R.R.R.R.X.z.T.3.z.A 0.T.T.T.G.T.T.G.V.T.g.V.T.A.T.T.g.v.J.T.S.c.T.T.2.: 8 6 r.u.2.2.v.T.H R.R.R.R.R.R.R.R.",
"R.R.R.R.R.R.R.R.R.6.T.2.u.R.R.R.R.t.A T.z.8.g.T.T.g.8.0.A.T.K.A.T.g.W g.T.V.v.z.g.V.T.T.v.W l j p q q A 2.8.g.T.T.2.H R.R.R.R.R.R.R.R.",
"R.R.R.R.R.R.R.R.X.h.T.A :.R.R.R.&.X.0.T.W ^ T.v.2.5 + x m.T.V.V.T.0.A 2.v.T.V.M.v.T.P.T.c.M v M W 8.z.T.T.T.T.8.H H R.R.R.R.R.R.R.R.R.",
"R.R.R.R.R.R.R.R.N T.a.X._ R.R.} F W T.2.0.^ T.0.3   o  .T.v.v.T.V.Q 8.T.2.0.T.T.T.V.G.T.A.g.0.g.T.T.T.g.0.2.H X.t.R.R.R.R.R.R.R.R.R.R.",
"R.R.R.R.R.R.R.R.2.T.8.u._ / } | A T.2.v M ^ T.A 5 @ A 0.T.8.8.T.V.v.T.A # a A 8.0.V.P.T.P.T.T.T.h.8.H X.d.R.R.R.R.R.R.R.R.R.R.R.R.R.R.",
"R.R.R.R.R.R.R.R.2.T.2.a.[ t.X.X.T.8.j k ^ T.0.2.H H 0.T.,.2.:.8.T.T.,.- &.3 n ,.v.G.T.T.T.m.8.H X.d.R.R.R.R.R.R.R.i 1 8 R.R.R.R.R.R.R.",
"R.R.R.R.R.R.R.R.2.T.2.a.X.H 8.T.W X.j T.T.M.0.8.0.T.T.X.X.&.&.H v v H } &.@ l h.T.T.T.J.g.6.a.R.R.R.R.R.R.R.R.R.R.v T.a R.R.R.R.R.R.R.",
"R.R.R.R.R.R.R.R.a T. .a.2.T.T.,.; . q z.V.V.M.T.T.0.A F R.R.R.R.&.&.' &.@.,.T.T.F.U.T.g.d.} R.R.R.R.R.R.R.R.R.R.H 0.T.a R.R.R.R.R.R.R.",
"R.R.R.R.R.R.R.R.i q N 8.T.g.l # . H 2.v.T.T.T.0.A X.R.R.R.R.R.R.R.R.&.X.A T.0.g.M.T.v.6.] R.R.R.R.R.R.R.R.R.R.R.H T.0.X.R.R.R.R.R.R.R.",
"R.R.R.R.R.R.R.R.R.d.A T.v.h.k $ l g.T.T.z.2.H X.R.R.R.R.R.R.R.R.R.R.X.A T.A * C.h.T.2.s.R.R.R.R.R.R.R.R.R.R.R.R.2.T.2.R.R.R.R.R.R.R.R.",
"R.R.R.R.R.R.R.R.R.R.v T.M.c.^ g.T.T.0.A X.a.R.R.R.R.R.R.R.R.R.R.R.H W T.,.: r.* g.T.H R.R.R.R.R.R.R.R.R.R.R.R.X.g.T.H R.R.R.R.R.R.R.R.",
"R.R.R.R.R.R.R.R.R.R.H 2.T.T.T.T.0.A X.s.R.R.R.R.R.R.R.R.R.R.R.R.R.H T.8.X.&.>.H T.g.X.R.R.R.R.R.R.R.R.R.R.R.R.A T.h.X.R.R.R.R.R.R.R.R.",
"R.R.R.R.R.R.R.R.R.R.R.X.2.6.2.H X.s.R.R.R.R.R.R.R.R.R.R.R.R.R.R.H 0.T.A :._ t.8.T.2.R.R.R.R.R.R.R.R.R.R.R.R.R.6.T.8.R.R.R.R.R.R.R.R.R.",
"R.R.R.R.R.R.R.R.R.R.R.H a 6.u.t.R.R.R.R.R.R.R.R.R.R.R.R.R.R.R.R.H T.g.X.] ] X.g.T.H R.R.R.R.R.R.R.R.R.R.R.R.X.g.T.A R.R.R.R.R.R.R.R.R.",
"R.R.R.R.R.R.R.R.R.R.R.a T.H t.R.R.R.R.R.R.R.R.R.R.R.R.R.R.R.R.R.2.T.0.s._ t.A T.0.| R.R.R.R.R.R.R.R.R.R.R.R.A T.0.A R.R.R.R.R.R.R.R.R.",
"R.R.R.R.R.R.R.R.R.R.R.a T.0.X.R.R.R.R.R.R.R.R.R.R.R.R.R.R.R.R.R.X.T.0.d.:.X.0.T.H R.R.R.R.R.R.R.R.R.R.R.R.X.0.T.A R.R.R.R.R.R.R.R.R.R.",
"R.R.R.R.R.R.R.R.R.R.R.H 0.T.F s.R.R.R.R.R.R.R.R.R.R.R.R.R.R.R.R.H T.h.z.0.X.T.X.H R.R.R.R.R.R.R.R.R.R.R.R.A T.0.X.R.R.R.R.R.R.R.R.R.R.",
"R.R.R.R.R.R.R.R.R.R.R.R.H T.0.X.R.R.R.R.R.R.R.R.R.R.R.R.R.R.R.R.a 2.T.g.z.T.A F R.R.R.R.R.R.R.R.R.R.R.R.X.6.T.H R.R.R.R.R.R.R.R.R.R.R.",
"R.R.R.R.R.R.R.R.R.R.R.R.H A T.A H R.R.R.R.R.R.R.R.R.R.R.R.R.R.R.R.H X.T.T.X.| R.R.R.R.R.R.R.R.R.R.R.R.H W T.A H R.R.R.R.R.R.R.R.R.R.R.",
"R.R.R.R.R.R.R.R.R.R.R.R.R.H A T.W | R.R.R.R.R.R.R.R.R.R.R.R.R.R.R.R.f a a f R.R.R.R.R.R.R.R.R.R.R.R.H H T.A X.R.R.R.R.R.R.R.R.R.R.R.R.",
"R.R.R.R.R.R.R.R.R.R.R.R.R.R.X.A T.A F R.R.R.R.R.R.R.R.R.R.R.R.R.R.R.R.R.R.R.R.R.R.R.R.R.R.R.R.R.R.H A T.A H R.R.R.R.R.R.R.R.R.R.R.R.R.",
"R.R.R.R.R.R.R.R.R.R.R.R.R.R.R. .A T.A H R.R.R.R.R.R.R.R.R.R.R.R.R.R.R.R.R.R.R.R.R.R.R.R.R.R.R.R.| A T.A H R.R.R.R.R.R.R.R.R.R.R.R.R.R.",
"R.R.R.R.R.R.R.R.R.R.R.R.R.R.R.R. .A T.2.X.R.R.R.R.R.R.R.R.R.R.R.R.R.R.R.R.R.R.R.R.R.R.R.R.R.R.X.Y T.A X.R.R.R.R.R.R.R.R.R.R.R.R.R.R.R.",
"R.R.R.R.R.R.R.R.R.R.R.R.R.R.R.R.R.| A T.0.A X.R.R.R.R.R.R.R.R.R.R.R.R.R.R.R.R.R.R.R.R.R.R.X.A 0.T.A H R.R.R.R.R.R.R.R.R.R.R.R.R.R.R.R.",
"R.R.R.R.R.R.R.R.R.R.R.R.R.R.R.R.R.R.X.A T.T.0.A X.R.R.R.R.R.R.R.R.R.R.R.R.R.R.R.R.R.R.X.A 0.T.T. .X.R.R.R.R.R.R.R.R.R.R.R.R.R.R.R.R.R.",
"R.R.R.R.R.R.R.R.R.R.R.R.R.R.R.R.R.R.R.H A 0.T.T.0.A X.R.R.R.R.R.R.R.R.R.R.R.R.R.R.X.A 0.T.T.0.H H R.R.R.R.R.R.R.R.R.R.R.R.R.R.R.R.R.R.",
"R.R.R.R.R.R.R.R.R.R.R.R.R.R.R.R.R.R.R.R.R.X.A 0.T.T.z.6.2.H X.R.R.R.R.R.R.X.H 2.0.z.T.T.0.A X.R.R.R.R.R.R.R.R.R.R.R.R.R.R.R.R.R.R.R.R.",
"R.R.R.R.R.R.R.R.R.R.R.R.R.R.R.R.R.R.R.R.R.R.R.X.A 0.T.T.T.T.g.8.2.0.2.0.0.g.T.T.T.T.0.A X.R.R.R.R.R.R.R.R.R.R.R.R.R.R.R.R.R.R.R.R.R.R.",
"R.R.R.R.R.R.R.R.R.R.R.R.R.R.R.R.R.R.R.R.R.R.R.R.R.H H 2.8.h.T.T.T.T.T.T.T.T.h.0.2.A  .R.R.R.R.R.R.R.R.R.R.R.R.R.R.R.R.R.R.R.R.R.R.R.R.",
"R.R.R.R.R.R.R.R.R.R.R.R.R.R.R.R.R.R.R.R.R.R.R.R.R.R.R.R.R.X.H 2.2.2.0.2.2.H X.R.R.R.R.R.R.R.R.R.R.R.R.R.R.R.R.R.R.R.R.R.R.R.R.R.R.R.R.",
"R.R.R.R.R.R.R.R.R.R.R.R.R.R.R.R.R.R.R.R.R.R.R.R.R.R.R.R.R.R.R.R.R.R.R.R.R.R.R.R.R.R.R.R.R.R.R.R.R.R.R.R.R.R.R.R.R.R.R.R.R.R.R.R.R.R.R.",
"R.R.R.R.R.R.R.R.R.R.R.R.R.R.R.R.R.R.R.R.R.R.R.R.R.R.R.R.R.R.R.R.R.R.R.R.R.R.R.R.R.R.R.R.R.R.R.R.R.R.R.R.R.R.R.R.R.R.R.R.R.R.R.R.R.R.R.",
"R.R.R.R.R.R.R.R.R.R.R.R.R.R.R.R.R.R.R.R.R.R.R.R.R.R.R.R.R.R.R.R.R.R.R.R.R.R.R.R.R.R.R.R.R.R.R.R.R.R.R.R.R.R.R.R.R.R.R.R.R.R.R.R.R.R.R.",
"R.R.R.R.R.R.R.R.R.R.R.R.R.R.R.R.R.R.R.R.R.R.R.R.R.R.R.R.R.R.R.R.R.R.R.R.R.R.R.R.R.R.R.R.R.R.R.R.R.R.R.R.R.R.R.R.R.R.R.R.R.R.R.R.R.R.R.",
"R.R.R.R.R.R.R.R.R.R.R.R.R.R.R.R.R.R.R.R.R.R.R.R.R.R.R.R.R.R.R.R.R.R.R.R.R.R.R.R.R.R.R.R.R.R.R.R.R.R.R.R.R.R.R.R.R.R.R.R.R.R.R.R.R.R.R.",
"R.R.R.R.R.R.R.R.R.R.R.R.R.R.R.R.R.R.R.R.R.R.R.R.R.R.R.R.R.R.R.R.R.R.R.R.R.R.R.R.R.R.R.R.R.R.R.R.R.R.R.R.R.R.R.R.R.R.R.R.R.R.R.R.R.R.R.",
"R.R.R.R.R.R.R.R.R.R.R.R.R.R.R.R.R.R.R.R.R.R.R.R.R.R.R.R.R.R.R.R.R.R.R.R.R.R.R.R.R.R.R.R.R.R.R.R.R.R.R.R.R.R.R.R.R.R.R.R.R.R.R.R.R.R.R.",
"R.R.R.R.R.R.R.R.R.R.R.R.R.R.R.R.R.R.R.R.R.R.R.R.R.R.R.R.R.R.R.R.R.R.R.R.R.R.R.R.R.R.R.R.R.R.R.R.R.R.R.R.R.R.R.R.R.R.R.R.R.R.R.R.R.R.R."
};
