/* XPM */
static char *anim_1[] = {
/* columns rows colors chars-per-pixel */
"67 67 167 2 ",
"   c #891F84",
".  c #9A2E95",
"X  c #9C2E95",
"o  c #9E2D98",
"O  c #A52F9E",
"+  c #A2329C",
"@  c #A4349D",
"#  c #A738A1",
"$  c #A73AA2",
"%  c #A839A2",
"&  c #A93AA3",
"*  c #A93BA3",
"=  c #AC38A5",
"-  c #A93EA4",
";  c #AF3AA9",
":  c #AF3BA9",
">  c #B037AA",
",  c #B334AC",
"<  c #B435AD",
"1  c #B436AE",
"2  c #B13CAB",
"3  c #B338AC",
"4  c #B33AAC",
"5  c #B438AE",
"6  c #B538AF",
"7  c #B43DAE",
"8  c #B53EAF",
"9  c #B736B1",
"0  c #B739B1",
"q  c #B63AB0",
"w  c #B73CB1",
"e  c #B73DB1",
"r  c #B73FB1",
"t  c #B839B2",
"y  c #B93AB3",
"u  c #B93BB3",
"i  c #B83DB2",
"p  c #BA3EB3",
"a  c #BB3CB4",
"s  c #BB3DB4",
"d  c #BC3FB6",
"f  c #BF35B8",
"g  c #C037B9",
"h  c #C038B9",
"j  c #C238BA",
"k  c #C239BA",
"l  c #C23BBA",
"z  c #C33BBC",
"x  c #C33CBC",
"c  c #C43DBD",
"v  c #C43EBD",
"b  c #C53FBE",
"n  c #B444AE",
"m  c #B641B0",
"M  c #B740B1",
"N  c #B743B1",
"B  c #B744B1",
"V  c #B841B2",
"C  c #B843B2",
"Z  c #BA43B3",
"A  c #B844B2",
"S  c #BA44B3",
"D  c #BB40B5",
"F  c #BB41B5",
"G  c #BB43B5",
"H  c #BC40B6",
"J  c #BD40B7",
"K  c #BD41B7",
"L  c #BD42B7",
"P  c #BD43B7",
"I  c #BB45B5",
"U  c #BD46B7",
"Y  c #BD47B7",
"T  c #BB48B5",
"R  c #BD4AB7",
"E  c #BD4BB7",
"W  c #BC4DB6",
"Q  c #BE40B8",
"!  c #BE41B8",
"~  c #BF41B9",
"^  c #BE42B8",
"/  c #BF43B9",
"(  c #BE44B8",
")  c #BE45B8",
"_  c #BF44B9",
"`  c #BE46B8",
"'  c #BF47B9",
"]  c #BE48B8",
"[  c #BE4CB8",
"{  c #BF4DB9",
"}  c #BF4EB9",
"|  c #C043BA",
" . c #C044BA",
".. c #C145BA",
"X. c #C147BA",
"o. c #C540BE",
"O. c #C541BE",
"+. c #C641BF",
"@. c #C642BF",
"#. c #C244BC",
"$. c #C245BC",
"%. c #C344BD",
"&. c #C345BD",
"*. c #C246BC",
"=. c #C247BC",
"-. c #C346BD",
";. c #C148BA",
":. c #C14ABA",
">. c #C349BD",
",. c #C24ABC",
"<. c #C34BBD",
"1. c #C448BE",
"2. c #C449BE",
"3. c #C54ABF",
"4. c #C44CBE",
"5. c #C54CBF",
"6. c #C54DBF",
"7. c #C54FBF",
"8. c #C742C0",
"9. c #C744C0",
"0. c #C745C0",
"q. c #C945C1",
"w. c #C946C1",
"e. c #CA46C3",
"r. c #CA47C3",
"t. c #C64AC0",
"y. c #C64CC0",
"u. c #C94EC3",
"i. c #CB49C4",
"p. c #CB4AC5",
"a. c #CC4BC6",
"s. c #CD4CC7",
"d. c #CD4DC7",
"f. c #CE4FC8",
"g. c #C650C0",
"h. c #C850C1",
"j. c #C851C1",
"k. c #C852C1",
"l. c #C950C3",
"z. c #C951C3",
"x. c #C953C3",
"c. c #C854C2",
"v. c #CA55C4",
"b. c #CB55C5",
"n. c #CA57C4",
"m. c #CB56C5",
"M. c #CC57C6",
"N. c #CD58C7",
"B. c #CD59C7",
"V. c #CF5BC9",
"C. c #D051CA",
"Z. c #D05CCA",
"A. c #D15DCB",
"S. c #D05FCA",
"D. c #D25FCC",
"F. c #D361CD",
"G. c #D562CE",
"H. c #D663D0",
"J. c #D764D1",
"K. c #D765D1",
"L. c #D868D2",
"P. c #D969D3",
"I. c #DA6AD4",
"U. c #DC6AD6",
"Y. c #DD6CD7",
"T. c #FDC0FA",
"R. c None",
/* pixels */
"R.R.R.R.R.R.R.R.R.R.R.R.R.R.R.R.R.R.R.R.R.R.R.R.R.R.R.R.R.R.R.R.R.R.R.R.R.R.R.R.R.R.R.R.R.R.R.R.R.R.R.R.R.R.R.R.R.R.R.R.R.R.R.R.R.R.R.",
"R.R.R.R.R.R.R.R.R.R.R.R.R.R.R.R.R.R.R.R.R.R.R.R.R.R.R.R.R.R.R.R.R.R.R.R.R.R.R.R.R.R.R.R.R.R.R.R.R.R.R.R.R.R.R.R.R.R.R.R.R.R.R.R.R.R.R.",
"R.R.R.R.R.R.R.R.R.R.R.R.R.R.R.R.R.R.R.R.R.R.R.R.R.R.R.R.R.R.R.R.R.R.R.R.R.R.R.R.R.R.R.R.R.R.R.R.R.R.R.R.R.R.R.R.R.R.R.R.R.R.R.R.R.R.R.",
"R.R.R.R.R.R.R.R.R.R.R.R.R.R.R.R.R.R.R.R.R.R.R.R.R.R.R.R.R.R.R.R.R.R.R.R.R.R.R.R.R.R.R.R.R.R.R.R.R.R.R.R.R.R.R.R.R.R.R.R.R.R.R.R.R.R.R.",
"R.R.R.R.R.R.R.R.R.R.R.R.R.R.R.R.R.R.R.R.R.R.R.R.R.R.R.R.R.R.R.R.R.R.R.R.R.R.R.R.R.R.R.R.R.R.R.R.R.R.R.R.R.R.R.R.R.R.R.R.R.R.R.R.R.R.R.",
"R.R.R.R.R.R.R.R.R.R.R.R.R.R.R.R.R.R.R.R.R.R.R.R.R.R.R.R.R.R.R.R.R.R.R.R.R.R.R.R.R.R.R.R.R.R.R.R.R.R.R.R.R.R.R.R.R.R.R.R.R.R.R.R.R.R.R.",
"R.R.R.R.R.R.R.R.R.R.R.R.R.R.R.R.R.R.R.R.R.R.R.R.R.R.R.R.R.R.R.R.R.R.R.R.R.R.R.R.R.R.R.R.R.R.R.R.R.R.R.R.R.R.R.R.R.R.R.R.R.R.R.R.R.R.R.",
"R.R.R.R.R.R.R.R.R.R.R.R.R.R.R.R.R.R.R.R.R.R.R.R.R.R.R.R.R.R.R.R.R.R.R.R.R.R.R.R.R.R.R.R.R.R.R.R.R.R.R.R.R.R.R.R.R.R.R.R.R.R.R.R.R.R.R.",
"R.R.R.R.R.R.R.R.R.R.R.R.R.R.R.R.R.R.R.R.R.R.R.R.R.R.R.R.R.R.R.R.R.R.R.R.R.R.R.R.R.R.R.R.R.R.R.R.R.R.R.R.R.R.R.R.R.R.R.R.R.R.R.R.R.R.R.",
"R.R.R.R.R.R.R.R.R.R.R.R.R.R.R.R.R.R.R.R.R.R.R.R.R.R.R...P <.<.<.<.<.<.<.<.<.<.<.P ..R.R.R.R.R.R.R.R.R.R.R.R.R.R.R.R.R.R.R.R.R.R.R.R.R.",
"R.R.R.R.R.R.R.R.R.R.R.R.R.R.R.R.R.R.R.R.R.R.R.R./ P <.j.T.T.T.T.T.T.T.T.T.T.T.T.T.j.<.P / R.R.R.R.R.R.R.R.R.R.R.R.R.R.R.R.R.R.R.R.R.R.",
"R.R.R.R.R.R.R.R.R.R.R.R.R.R.R.R.R.R.R.R.R.R./ P 6.T.T.T.g.6.<.<.<.<.<.<.<.<.<.6.j.T.T.T.6./ / R.R.R.R.R.R.R.R.R.R.R.R.R.R.R.R.R.R.R.R.",
"R.R.R.R.R.R.R.R.R.R.R.R.R.R.R.R.R.R.R.R.R...:.T.T.g.<.P ..R.R.R.R.R.R.R.R.R.R.R...P <.g.T.T.:...R.R.R.R.R.R.R.R.R.R.R.R.R.R.R.R.R.R.R.",
"R.R.R.R.R.R.R.R.R.R.R.R.R.R.R.R.R.R.R./ P 3.T.6.) ..R.R.R.R.R.R.R.R.R.R.R.R.R.R.R.R.R...P 6.T.3.P / R.R.R.R.R.R.R.R.R.R.R.R.R.R.R.R.R.",
"R.R.R.R.R.R.R.R.R.R.R.R.R.R.R.R.R.R./ ] T.T...$.R.R.R.R.R.R.R.R.R.R.R.R.R.R.R.R.R.R.R.R.R.$.:.T.T.) / R.R.R.R.R.R.R.R.R.R.R.R.R.R.R.R.",
"R.R.R.R.R.R.R.R.R.R.R.R.R.R.R.R.R.) ) T.6.P / R.R.R.R.R.R.R.R.R.R.R.R.R.R.R.R.R.R.R.R.R.R.R./ P 6.T.) / R.R.R.R.R.R.R.R.R.R.R.R.R.R.R.",
"R.R.R.R.R.R.R.R.R.R.R.R.R.R.R.R.| ) T.) ..R.R.R.R.R.R.R.R.R.R.R.R.R.R.R.R.R.R.R.R.R.R.R.R.R.R.R...) T.) / R.R.R.R.R.R.R.R.R.R.R.R.R.R.",
"R.R.R.R.R.R.R.R.R.R.R.R.R.R.R.) ) T.) / R.R.R.R.R.R.R.R.R.R.R.R.R.R.R.R.R.R.R.R.R.R.R.R.R.R.R.R.R./ ) T./ / R.R.R.R.R.R.R.R.R.R.R.R.R.",
"R.R.R.R.R.R.R.R.R.R.R.R.R.R./ ) T.) / R.R.R.R.R.R.R.R.R.R.R.R.R.R.R.R.R.R.R.R.R.R.R.R.R.R.R.R.R.R.R...) T.) / R.R.R.R.R.R.R.R.R.R.R.R.",
"R.R.R.R.R.R.R.R.R.R.R.R.R./ ) T.) / R.R.R.R.R.R.R.R.R.R.R.R.R.R.R.R.R.R.R.R.R.R.R.R.R.R.R.R.R.R.R.R.o./ ) T.) / R.R.R.R.R.R.R.R.R.R.R.",
"R.R.R.R.R.R.R.R.R.R.R.R./ ] T.) | R.R.R.R.R.R.R.R.R.R.R.R.R.R.R.R.R.R.R.R.R.R.R.R.R.R.R.R.R.R.R.R.R.R.b / ) T.) / R.R.R.R.R.R.R.R.R.R.",
"R.R.R.R.R.R.R.R.R.R.R.R.P T.6...R.R.R.R.R.R.R.R.R.R.R.R.R.R.R.R.R.R.R.R.R.R.R.R.R.R.R.R.R.R.R.s , 9 j g o.1.6.T.P R.R.R.R.R.R.R.R.R.R.",
"R.R.R.R.R.R.R.R.R.R.R...6.T.) R.R.R.R.R.R.R.R.R.R.R.R.R.R.R.R.R.R.R.R.R.R.R.R.R.R.R.R.R.R.R./ P T.< o.z z p.) T.3...R.R.R.R.R.R.R.R.R.",
"R.R.R.R.R.R.R.R.R.R.R.) T.6...R.R.R.R.R.R.R.R.R.R.R.R.R.R.R.R.R.R.R.R.R.R.R./ / ) P ..o.b | ) T.P s / < s 8.$.6.T.P R.R.R.R.R.R.R.R.R.",
"R.R.R.R.R.R.R.R.R.R./ 6.T.) R.R.R.R.R.0 < 0 R.R.R.R.R.R.R./ s D P R.R.R.o.) :.T.T.T.y.t.f.) T.6.) / P T.u 1.r.P T.6.) R.R.R.R.R.R.R.R.",
"R.R.R.R.R.R.R.R.R.R.P T.g...R.R.R.R.R.p T.p R.R.R.R.R.R.) <.T.T.<.| v b ..) T.u.v.D.T.v.y.c.T.] p.P <.T.p o.b $.j.T.P R.R.R.R.R.R.R.R.",
"R.R.R.R.R.R.R.R.R.R.<.T.<.R.R.R.R.R.R.:.T.:.R.R.R.R.R.r.P T.D.Z.T.P p.3.<.T.<.<.j.Z.T.T.J.T.c.I r :.T.:.d k j p.6.T.<.R.R.R.R.R.R.R.R.",
"R.R.R.R.R.R.R.R.R...j.T.P R.R.R.R.R.R.<.T.<.p.j j 8.r.d.6.T.H.F.T.6.] y.T.v.6...y.T.U.T.Y.T.N.:.<.T.P o.z g g p.<.T.<.R.R.R.R.R.R.R.R.",
"R.R.R.R.R.R.R.R.R.P T.g...R.R.R.R.R.s.3.T.<.d.r.$.P :.6.V.T.U.T.V.v.T.N.T.V.j.g.T.M.J.T.P.T.Z.c.T.) 7 o.f g b d.6.T.<.R.R.R.R.R.R.R.R.",
"R.R.R.R.R.R.R.R.R.<.T.3.d.R.R.R.R.R...j.T.<.u.) 6.T.T.T.G.T.T.G.V.T.c.N.T.Z.T.T.j.c.G.T.Z.c.T.T.:.; 0 6 r.p.<...v.T.P R.R.R.R.R.R.R.R.",
"R.R.R.R.R.R.R.R.R.6.T.:.p.R.R.R.R.r.) T.c.6.7.T.T.j.6.6.Z.T.K.Z.T.j.] 7.T.Z.v.j.7.N.T.T.n.R B C r r r P <.<.j.T.T.<./ R.R.R.R.R.R.R.R.",
"R.R.R.R.R.R.R.R...j.T.P 9.R.R.R.o.$.6.T.] [ T.v.:.2 + N v.T.Z.Z.T.6.P 6.c.T.N.N.v.T.P.T.c.P C D ) 3.g.T.T.T.T.6.P P R.R.R.R.R.R.R.R.R.",
"R.R.R.R.R.R.R.R.P T.j...z R.R.b ..) T.3.y.[ T.6.6   o ] T.v.v.T.N.W <.T.:.6.T.T.T.V.H.T.Z.j.6.j.T.T.T.j.6.:./ ..p.R.R.R.R.R.R.R.R.R.R.",
"R.R.R.R.R.R.R.R.<.T.6.p.j g b | ) T.<.C T W T.P > + ) 6.T.6.3.T.V.M.T./ # p ) 3.j.M.P.T.U.T.T.T.j.<.) ..d.R.R.R.R.R.R.R.R.R.R.R.R.R.R.",
"R.R.R.R.R.R.R.R.<.T.<.p.v r.$.) T.<.N n [ T.6.<.) ) y.T.:.1.1.<.T.T.:.= o.3 D :.c.H.T.T.T.v.<.P $.d.R.R.R.R.R.R.R.u < 0 R.R.R.R.R.R.R.",
"R.R.R.R.R.R.R.R...T.3.p.| P <.T.) ..N T.T.M.6.6.y.T.T.....o.o./ D D / b o.@ B j.T.T.T.K.6.3.d.R.R.R.R.R.R.R.R.R.R.D T.p R.R.R.R.R.R.R.",
"R.R.R.R.R.R.R.R.p T.) u.<.T.T.:.; . r j.V.V.v.T.T.6.P / R.R.R.R.o.o.v o.$.) T.T.F.U.T.7.d.b R.R.R.R.R.R.R.R.R.R.) 6.T.p R.R.R.R.R.R.R.",
"R.R.R.R.R.R.R.R.u r P 6.T.g.B * . P <.v.T.T.T.g.) $.R.R.R.R.R.R.R.R.b | ) T.6.g.N.T.v.3.v R.R.R.R.R.R.R.R.R.R.R.P T.6...R.R.R.R.R.R.R.",
"R.R.R.R.R.R.R.R.R.d.P T.v.j.* $ A 7.T.T.j.<.P ..R.R.R.R.R.R.R.R.R.R.| ) T.) * C.j.T.3.p.R.R.R.R.R.R.R.R.R.R.R.R.<.T.<.R.R.R.R.R.R.R.R.",
"R.R.R.R.R.R.R.R.R.R.s T.N.v.g.g.T.T.6.P $.p.R.R.R.R.R.R.R.R.R.R.R./ :.T.] ; r.* g.T.P R.R.R.R.R.R.R.R.R.R.R.R...j.T./ R.R.R.R.R.R.R.R.",
"R.R.R.R.R.R.R.R.R.R./ <.T.T.T.T.6.P $.p.R.R.R.R.R.R.R.R.R.R.R.R.R.P T.6.$.o.9.P T.j.$.R.R.R.R.R.R.R.R.R.R.R.R.P T.j...R.R.R.R.R.R.R.R.",
"R.R.R.R.R.R.R.R.R.R.R.$.:.<.<.P ..p.R.R.R.R.R.R.R.R.R.R.R.R.R.R./ 6.T.P 9.j r.<.T.<.R.R.R.R.R.R.R.R.R.R.R.R.R.<.T.<.R.R.R.R.R.R.R.R.R.",
"R.R.R.R.R.R.R.R.R.R.R.d s 3.p.r.R.R.R.R.R.R.R.R.R.R.R.R.R.R.R.R.P T.j.$.v z $.g.T.) R.R.R.R.R.R.R.R.R.R.R.R...g.T.P R.R.R.R.R.R.R.R.R.",
"R.R.R.R.R.R.R.R.R.R.R.p T./ r.R.R.R.R.R.R.R.R.R.R.R.R.R.R.R.R.R.:.T.6.p.x 9.) T.6.) R.R.R.R.R.R.R.R.R.R.R.R.) T.6./ R.R.R.R.R.R.R.R.R.",
"R.R.R.R.R.R.R.R.R.R.R.p T.6.$.R.R.R.R.R.R.R.R.R.R.R.R.R.R.R.R.R.:.T.y.f.8.$.3.T.P R.R.R.R.R.R.R.R.R.R.R.R...6.T.) R.R.R.R.R.R.R.R.R.R.",
"R.R.R.R.R.R.R.R.R.R.R./ 6.T.) p.R.R.R.R.R.R.R.R.R.R.R.R.R.R.R.R.P T.j.j.t.:.T.) / R.R.R.R.R.R.R.R.R.R.R.R.) T.6...R.R.R.R.R.R.R.R.R.R.",
"R.R.R.R.R.R.R.R.R.R.R.R.P T.6.$.R.R.R.R.R.R.R.R.R.R.R.R.R.R.R.R.d ..T.j.j.T.:./ R.R.R.R.R.R.R.R.R.R.R.R...6.T.P R.R.R.R.R.R.R.R.R.R.R.",
"R.R.R.R.R.R.R.R.R.R.R.R./ ) T.) / R.R.R.R.R.R.R.R.R.R.R.R.R.R.R.R.| :.T.T.) / R.R.R.R.R.R.R.R.R.R.R.R./ ) T.) / R.R.R.R.R.R.R.R.R.R.R.",
"R.R.R.R.R.R.R.R.R.R.R.R.R./ ) T.) / R.R.R.R.R.R.R.R.R.R.R.R.R.R.R.R.d p p d R.R.R.R.R.R.R.R.R.R.R.R./ / T.) ) R.R.R.R.R.R.R.R.R.R.R.R.",
"R.R.R.R.R.R.R.R.R.R.R.R.R.R.) ) T.) / R.R.R.R.R.R.R.R.R.R.R.R.R.R.R.R.R.R.R.R.R.R.R.R.R.R.R.R.R.R./ P T.) / R.R.R.R.R.R.R.R.R.R.R.R.R.",
"R.R.R.R.R.R.R.R.R.R.R.R.R.R.R.| ) T.) / R.R.R.R.R.R.R.R.R.R.R.R.R.R.R.R.R.R.R.R.R.R.R.R.R.R.R.R.| ) T.) / R.R.R.R.R.R.R.R.R.R.R.R.R.R.",
"R.R.R.R.R.R.R.R.R.R.R.R.R.R.R.R./ ) T.] ..R.R.R.R.R.R.R.R.R.R.R.R.R.R.R.R.R.R.R.R.R.R.R.R.R.R...) T.) ) R.R.R.R.R.R.R.R.R.R.R.R.R.R.R.",
"R.R.R.R.R.R.R.R.R.R.R.R.R.R.R.R.R./ ) T.6.) ..R.R.R.R.R.R.R.R.R.R.R.R.R.R.R.R.R.R.R.R.R.R...) 6.T.) / R.R.R.R.R.R.R.R.R.R.R.R.R.R.R.R.",
"R.R.R.R.R.R.R.R.R.R.R.R.R.R.R.R.R.R.) ..T.T.6.) ..R.R.R.R.R.R.R.R.R.R.R.R.R.R.R.R.R.R...) 6.T.T.) | R.R.R.R.R.R.R.R.R.R.R.R.R.R.R.R.R.",
"R.R.R.R.R.R.R.R.R.R.R.R.R.R.R.R.R.R.R./ P 6.T.T.y.) ..R.R.R.R.R.R.R.R.R.R.R.R.R.R...) 6.T.T.6./ / R.R.R.R.R.R.R.R.R.R.R.R.R.R.R.R.R.R.",
"R.R.R.R.R.R.R.R.R.R.R.R.R.R.R.R.R.R.R.R.R...) 6.T.T.g.6.<.P ..R.R.R.R.R.R.../ :.6.j.T.T.6.P ..R.R.R.R.R.R.R.R.R.R.R.R.R.R.R.R.R.R.R.R.",
"R.R.R.R.R.R.R.R.R.R.R.R.R.R.R.R.R.R.R.R.R.R.R...P 6.T.T.T.T.j.<.<.<.<.<.6.g.T.T.T.T.y.) ..R.R.R.R.R.R.R.R.R.R.R.R.R.R.R.R.R.R.R.R.R.R.",
"R.R.R.R.R.R.R.R.R.R.R.R.R.R.R.R.R.R.R.R.R.R.R.R.R./ P <.6.j.T.T.T.T.T.T.T.T.j.6.:./ ) R.R.R.R.R.R.R.R.R.R.R.R.R.R.R.R.R.R.R.R.R.R.R.R.",
"R.R.R.R.R.R.R.R.R.R.R.R.R.R.R.R.R.R.R.R.R.R.R.R.R.R.R.R.R...P <.<.<.<.<.<.P ..R.R.R.R.R.R.R.R.R.R.R.R.R.R.R.R.R.R.R.R.R.R.R.R.R.R.R.R.",
"R.R.R.R.R.R.R.R.R.R.R.R.R.R.R.R.R.R.R.R.R.R.R.R.R.R.R.R.R.R.R.R.R.R.R.R.R.R.R.R.R.R.R.R.R.R.R.R.R.R.R.R.R.R.R.R.R.R.R.R.R.R.R.R.R.R.R.",
"R.R.R.R.R.R.R.R.R.R.R.R.R.R.R.R.R.R.R.R.R.R.R.R.R.R.R.R.R.R.R.R.R.R.R.R.R.R.R.R.R.R.R.R.R.R.R.R.R.R.R.R.R.R.R.R.R.R.R.R.R.R.R.R.R.R.R.",
"R.R.R.R.R.R.R.R.R.R.R.R.R.R.R.R.R.R.R.R.R.R.R.R.R.R.R.R.R.R.R.R.R.R.R.R.R.R.R.R.R.R.R.R.R.R.R.R.R.R.R.R.R.R.R.R.R.R.R.R.R.R.R.R.R.R.R.",
"R.R.R.R.R.R.R.R.R.R.R.R.R.R.R.R.R.R.R.R.R.R.R.R.R.R.R.R.R.R.R.R.R.R.R.R.R.R.R.R.R.R.R.R.R.R.R.R.R.R.R.R.R.R.R.R.R.R.R.R.R.R.R.R.R.R.R.",
"R.R.R.R.R.R.R.R.R.R.R.R.R.R.R.R.R.R.R.R.R.R.R.R.R.R.R.R.R.R.R.R.R.R.R.R.R.R.R.R.R.R.R.R.R.R.R.R.R.R.R.R.R.R.R.R.R.R.R.R.R.R.R.R.R.R.R.",
"R.R.R.R.R.R.R.R.R.R.R.R.R.R.R.R.R.R.R.R.R.R.R.R.R.R.R.R.R.R.R.R.R.R.R.R.R.R.R.R.R.R.R.R.R.R.R.R.R.R.R.R.R.R.R.R.R.R.R.R.R.R.R.R.R.R.R.",
"R.R.R.R.R.R.R.R.R.R.R.R.R.R.R.R.R.R.R.R.R.R.R.R.R.R.R.R.R.R.R.R.R.R.R.R.R.R.R.R.R.R.R.R.R.R.R.R.R.R.R.R.R.R.R.R.R.R.R.R.R.R.R.R.R.R.R.",
"R.R.R.R.R.R.R.R.R.R.R.R.R.R.R.R.R.R.R.R.R.R.R.R.R.R.R.R.R.R.R.R.R.R.R.R.R.R.R.R.R.R.R.R.R.R.R.R.R.R.R.R.R.R.R.R.R.R.R.R.R.R.R.R.R.R.R."
};
